!!!!SEGMENT: pl-stab--4a--001-009_dankowski-adalbert--vesper-beate-marie-vir-gloria.krn
!!!cenid: 18xx:3498
!!!COM: Dankowski, Adalbert
!!!COM-rismID: pe30000793
!!!CDT: ~1760-~1836
!!!CNT: Polish
!!!OPR: Vesper Beate Marie Vir
!!!OTL: Gloria
!!!OMV: 009
!!!PDT:
!!!AGN: Sacred; Vespers
!!!SMS-siglum: PL-STAb
!!!SMS-shelfmark: 4a
!!!SMS-shelfwork: 001-009 M
!!!SMS-variant:
!!!SMS-altvar:
!!!NIFC-rismSourceID: 301050556
!!!NIFC-rismChildID: 301050556
!!!NIFC-islandoraID: pl-stab:1091
!!!URL-pdf-islandora: https://repozytorium.nifc.pl/islandora/object/pl-stab%3A1091/datastream/PDF/view
!!!URL-scan: https://polish.musicsources.pl/pl/lokalizacje/galeria/rekopisy/4518 @EN{Scan on Polish Music Sources Website} @PL{Skany w portalu Dziedzictwo Muzyki Polskiej w otwartym dostępie}
!!!ONB-nifc: UWAGA: części Nieszporów: 1. Domine ad adjuvandum, 2. Dixit Dominus, 3. Laudate pueri, 4. Laetatus sum, 5. Nisi Dominus, 6. Lauda Jerusalem, 7. Magnificat, 8. Et misericordia, 9. Gloria. UWAGA: Na f. 1v okładki zapisany głos org niezidentyfikowanych nieszporów
!!!AIN: 1 alto 1 bass 2 cor 1 organ 1 soprn 1 tenor 2 violn
!!!key: D
**kern	**fba	**dynam	**kern	**dynam	**kern	**dynam	**kern	**text	**dynam	**kern	**text	**dynam	**kern	**text	**dynam	**kern	**text	**dynam	**kern	**dynam	**kern	**dynam
*group4	*	*	*group3	*	*group3	*	*group2	*	*	*group2	*	*	*group2	*	*	*group2	*	*	*group1	*	*group1	*
*part9	*	*part9	*part8	*part8	*part7	*part7	*part6	*part6	*part6	*part5	*part5	*part5	*part4	*part4	*part4	*part3	*part3	*part3	*part2	*part2	*part1	*part1
*staff9	*	*	*staff8	*	*staff7	*	*staff6	*staff6	*	*staff5	*staff5	*	*staff4	*staff4	*	*staff3	*staff3	*	*staff2	*	*staff1	*
*I"Organo	*	*	*I"Violino Secundo	*	*I"Violino Primo	*	*I"Baſso	*	*	*I"Tenor	*	*	*I"Alto	*	*	*I"Canto	*	*	*I"Cornu Secundo Ex D.	*	*I"Cornu Primo Ex D:	*
*	*	*	*mI"Violino II	*	*mI"Violino I	*	*mI"Basso	*	*	*mI"Tenore	*	*	*	*	*	*mI"Soprano	*	*	*mI"Cornu II in D	*	*mI"Cornu I in D	*
*I'[Org]	*	*	*I'[Vl 2]	*	*I'[Vl 1]	*	*I'[B]	*	*	*I'[T]	*	*	*I'[A]	*	*	*I'[S]	*	*	*I'[Cor 2 in D]	*	*I'[Cor 1 in D]	*
*mI'org	*	*	*mI'vl II	*	*mI'vl I	*	*mI'B	*	*	*mI'T	*	*	*mI'A	*	*	*mI'S	*	*	*mI'cor II	*	*mI'cor I	*
*Iorgan	*	*	*Ivioln	*	*Ivioln	*	*Ibass	*	*	*Itenor	*	*	*Ialto	*	*	*Isoprn	*	*	*Icor	*	*Icor	*
*ICklav	*	*	*ICstr	*	*ICstr	*	*ICvox	*	*	*ICvox	*	*	*ICvox	*	*	*ICvox	*	*	*ICbras	*	*ICbras	*
*IGcont	*	*	*IGacmp	*	*IGacmp	*	*IGcoro	*	*	*IGcoro	*	*	*IGcoro	*	*	*IGcoro	*	*	*IGacmp	*	*IGacmp	*
*clefF4	*	*	*clefG2	*	*clefG2	*	*clefF4	*	*	*clefC4	*	*	*clefC3	*	*	*clefC1	*	*	*clefG2	*	*clefG2	*
*	*	*	*	*	*	*	*	*	*	*mclefGv2	*	*	*mclefG2	*	*	*mclefG2	*	*	*	*	*	*
*	*	*	*	*	*	*	*	*	*	*	*	*	*	*	*	*	*	*	*ITrd-1c-2	*	*ITrd-1c-2	*
*k[f#c#]	*	*	*k[f#c#]	*	*k[f#c#]	*	*k[f#c#]	*	*	*k[f#c#]	*	*	*k[f#c#]	*	*	*k[f#c#]	*	*	*k[f#c#]	*	*k[f#c#]	*
*D:	*	*	*D:	*	*D:	*	*D:	*	*	*D:	*	*	*D:	*	*	*D:	*	*	*	*	*	*
*M3/4	*	*	*M3/4	*	*M3/4	*	*M3/4	*	*	*M3/4	*	*	*M3/4	*	*	*M3/4	*	*	*M3/4	*	*M3/4	*
=1	=1	=1	=1	=1	=1	=1	=1	=1	=1	=1	=1	=1	=1	=1	=1	=1	=1	=1	=1	=1	=1	=1
!!!OMD:
!!!OMD-mod: Adagio
!LO:TX:a:B:t=Adagio:mod=	!	!	!LO:TX:a:B:t=adagio:mod=	!	!LO:TX:a:B:t=adagio:mod=	!	!	!	!	!LO:TX:a:B:t=adagio:mod=	!	!	!	!	!	!LO:TX:a:B:t=adagio:mod=	!	!	!LO:TX:a:B:t=adagio:mod=	!	!LO:TX:a:B:t=adagio:mod=	!
4D\	.	.	(>8.ff#\L	.	8.aa\L	.	4D\	Glo-	.	4A\	Glo-	.	4f#\	Glo-	.	4dd\	Glo-	.	4dd\	.	4ff#\	.
.	.	.	16dd\Jk)	.	16ff#\Jk	.	.	.	.	.	.	.	.	.	.	.	.	.	.	.	.	.
!	!	!	!	!LO:MO:null:mod=!LO&colon;DY&colon;ed=brack	!	!	!	!	!	!	!	!	!	!	!	!	!	!	!	!	!	!
!	!	!	!	!	!	!	!	!	!	!	!	!	!	!	!	!	!	!	!	!	!	!
!	!	!	!LO:TX:b:t=|:problem	!LO:MO:null:mod=f	!	!LO:DY:a:t=for	!	!	!	!	!	!	!LO:TX:a:B:t=adagio:mod=	!	!	!	!	!	!	!	!	!
4D\	.	.	8f#/L	.	8dd\L	f	4D\	-ri-	.	4A\	-ri-	.	4f#\	-ri-	.	4dd\	-ri-	.	4dd\	.	4ff#\	.
!	!	!	!LO:TX:b:t=|:problem	!	!	!	!	!	!	!	!	!	!	!	!	!	!	!	!	!	!	!
.	.	.	8f#/	.	8dd\	.	.	.	.	.	.	.	.	.	.	.	.	.	.	.	.	.
!	!	!	!LO:TX:b:t=|:problem	!	!	!	!	!	!	!	!	!	!	!	!	!	!	!	!	!	!	!
4D\	.	.	8f#/	.	8dd\	.	4D\	-a	.	4A\	-a	.	4f#\	-a	.	4dd\	-a	.	4dd\	.	4ff#\	.
!	!	!	!LO:TX:b:t=|:problem	!	!	!	!	!	!	!	!	!	!	!	!	!	!	!	!	!	!	!
.	.	.	8f#/J	.	8dd\J	.	.	.	.	.	.	.	.	.	.	.	.	.	.	.	.	.
=2	=2	=2	=2	=2	=2	=2	=2	=2	=2	=2	=2	=2	=2	=2	=2	=2	=2	=2	=2	=2	=2	=2
!LO:TX:a:t=tutti	!	!	!	!	!	!	!	!	!	!	!	!	!	!	!	!	!	!	!	!	!	!
4A\	4	.	8.f#/L	.	8.dd\L	.	4A\	Pa-	.	4A\	Pa-	.	4f#\	Pa-	.	4dd\	Pa-	.	4dd\	.	4ff#\	.
.	.	.	(<32e/LL	.	32cc#\LL	.	.	.	.	.	.	.	.	.	.	.	.	.	.	.	.	.
.	.	.	32f#/JJJ)	.	32dd\JJJ	.	.	.	.	.	.	.	.	.	.	.	.	.	.	.	.	.
!	!	!	!	!	!	!	!	!	!	!	!	!	!	!	!	!	!	!	!	!	!	!LO:MO:null:mod=!LO&colon;DY&colon;ed=brack
!	!	!	!	!	!	!	!	!	!	!	!	!	!	!	!	!	!	!	!	!	!	!
!	!	!	!LO:TX:b:t=|:problem	!	!	!	!	!	!	!	!	!	!	!	!	!	!	!	!	!LO:DY:a:t=for.	!	!LO:MO:null:mod=f
4AA/	3	.	8e/L	.	8cc#\L	.	4AA/	-tri	.	4A\	-tri	.	4e\	-tri	.	4cc#\	-tri	.	4a/	f	4ee\	.
!	!	!	!LO:TX:b:t=|:problem	!	!	!	!	!	!	!	!	!	!	!	!	!	!	!	!	!	!	!
.	.	.	8e/J	.	16cc#\L	.	.	.	.	.	.	.	.	.	.	.	.	.	.	.	.	.
.	.	.	.	.	16dd\JJ	.	.	.	.	.	.	.	.	.	.	.	.	.	.	.	.	.
4r	.	.	16cc#\LL	.	16ee\LL	.	4r	.	.	4r	.	.	4r	.	.	4r	.	.	4r	.	4r	.
.	.	.	16b\	.	16dd\	.	.	.	.	.	.	.	.	.	.	.	.	.	.	.	.	.
.	.	.	16cc#\	.	16ee\	.	.	.	.	.	.	.	.	.	.	.	.	.	.	.	.	.
.	.	.	16dd\JJ	.	16ff#\JJ	.	.	.	.	.	.	.	.	.	.	.	.	.	.	.	.	.
=3	=3	=3	=3	=3	=3	=3	=3	=3	=3	=3	=3	=3	=3	=3	=3	=3	=3	=3	=3	=3	=3	=3
!	!	!	!	!	!	!	!	!	!	!	!LO:MO:mod=Glo-	!	!	!	!	!	!	!	!	!	!	!
4A\	4:	.	(>8.ee\L	.	8.gg\L	.	4A\	Glo-	.	4c#\	glo-	.	4g\	Glo-	.	4ee\	Glo-	.	4ee\	.	4gg\	.
.	.	.	16dd\Jk)	.	16ff#\Jk	.	.	.	.	.	.	.	.	.	.	.	.	.	.	.	.	.
!	!	!	!LO:TX:b:t=|:problem	!	!	!	!	!	!	!	!	!	!	!	!	!	!	!	!	!	!	!
4A\	.	.	8cc#/L	.	8ee\L	.	4A\	-ri-	.	4c#\	-ri-	.	4g\	-ri-	.	4ee\	-ri-	.	4ee\	.	4gg\	.
!	!	!	!LO:TX:b:t=|:problem	!	!	!	!	!	!	!	!	!	!	!	!	!	!	!	!	!	!	!
.	.	.	8g/	.	8ee\	.	.	.	.	.	.	.	.	.	.	.	.	.	.	.	.	.
!	!	!	!LO:TX:b:t=|:problem	!	!	!	!	!	!	!	!	!	!	!	!	!	!	!	!	!	!	!
4A\	.	.	8g/	.	8ee\	.	4A\	-a	.	4c#\	-a	.	4g\	-a	.	4ee\	-a	.	4ee\	.	4gg\	.
!	!	!	!LO:TX:b:t=|:problem	!	!	!	!	!	!	!	!	!	!	!	!	!	!	!	!	!	!	!
.	.	.	8g/J	.	8ee\J	.	.	.	.	.	.	.	.	.	.	.	.	.	.	.	.	.
=4	=4	=4	=4	=4	=4	=4	=4	=4	=4	=4	=4	=4	=4	=4	=4	=4	=4	=4	=4	=4	=4	=4
4d\	4	.	(<8.g/L	.	8.ee\L	.	8d\	fi-	.	8d\	fi-	.	8g\	fi-	.	8ee\	fi-	.	4ee\	.	4gg\	.
.	.	.	.	.	.	.	8d\	-li-	.	8A\	-li-	.	8g\	-li-	.	8ee\	-li-	.	.	.	.	.
.	.	.	32f#/LL	.	32dd\LL	.	.	.	.	.	.	.	.	.	.	.	.	.	.	.	.	.
.	.	.	32g/JJJ)	.	32ee\JJJ	.	.	.	.	.	.	.	.	.	.	.	.	.	.	.	.	.
4D\	3	.	8f#/L	.	8dd\L	.	4D\	-o	.	4A\	-o	.	4f#\	-o	.	4dd\	-o	.	4dd\	.	4ff#\	.
.	.	.	8f#/J	.	16dd\L	.	.	.	.	.	.	.	.	.	.	.	.	.	.	.	.	.
.	.	.	.	.	16ee\JJ	.	.	.	.	.	.	.	.	.	.	.	.	.	.	.	.	.
4r	.	.	16dd\LL	.	16ff#\LL	.	4r	.	.	4r	.	.	4r	.	.	4r	.	.	4r	.	4r	.
.	.	.	16cc#\	.	16ee\	.	.	.	.	.	.	.	.	.	.	.	.	.	.	.	.	.
.	.	.	16dd\	.	16ff#\	.	.	.	.	.	.	.	.	.	.	.	.	.	.	.	.	.
.	.	.	16ee\JJ	.	16gg\JJ	.	.	.	.	.	.	.	.	.	.	.	.	.	.	.	.	.
=5	=5	=5	=5	=5	=5	=5	=5	=5	=5	=5	=5	=5	=5	=5	=5	=5	=5	=5	=5	=5	=5	=5
*	*	*	*	*	*	*	*2\right	*	*	*2\right	*	*	*2\right	*	*	*2\right	*	*	*	*	*	*
4D\	.	.	8.ff#\L	.	8.aa\L	.	2D\	Et	.	2A\	et	.	2f#\	et	.	2dd\	et	.	4dd\	.	4ff#\	.
.	.	.	16ee\Jk	.	16gg\Jk	.	.	.	.	.	.	.	.	.	.	.	.	.	.	.	.	.
!	!	!	!	!	!LO:LB:g=original	!	!	!	!	!	!	!	!	!	!	!	!	!	!	!	!	!
4D\	.	.	8dd\L	.	8ff#\L	.	.	.	.	.	.	.	.	.	.	.	.	.	4dd\	.	4ff#\	.
.	.	.	8dd\	.	8ff#\	.	.	.	.	.	.	.	.	.	.	.	.	.	.	.	.	.
!	!	!	!	!	!	!	!	!LO:MO:mod=spi-	!	!	!	!	!	!	!	!	!	!	!	!	!	!
4D\	.	.	8dd\	.	8ff#\	.	4D\	Spi-	.	4A\	spi-	.	4f#\	spi-	.	4dd\	spi-	.	4dd\	.	4ff#\	.
.	.	.	8dd\J	.	8ff#\J	.	.	.	.	.	.	.	.	.	.	.	.	.	.	.	.	.
!	!	!	!LO:LB:g=original	!	!	!	!	!	!	!	!	!	!	!	!	!	!	!	!	!	!	!
=6	=6	=6	=6	=6	=6	=6	=6	=6	=6	=6	=6	=6	=6	=6	=6	=6	=6	=6	=6	=6	=6	=6
4A\	.	.	8.cc#\L	.	8.ee\L	.	8A\	-ri-	.	8A\	-ri-	.	8e\	-ri-	.	8cc#\	-ri-	.	4a/	.	4ee\	.
.	.	.	.	.	.	.	8A\	-tu-	.	8A\	-tu-	.	8e\	-tu-	.	8cc#\	-tu-	.	.	.	.	.
.	.	.	32dd\LL	.	32ff#\LL	.	.	.	.	.	.	.	.	.	.	.	.	.	.	.	.	.
.	.	.	32ee\JJJ	.	32gg\JJJ	.	.	.	.	.	.	.	.	.	.	.	.	.	.	.	.	.
4D\	.	.	8dd\L	.	8ff#\L	.	4D\	-i	.	4A\	-i	.	4f#\	-i	.	4dd\	-i	.	4dd\	.	4ff#\	.
.	.	.	8dd\J	.	8ff#\J	.	.	.	.	.	.	.	.	.	.	.	.	.	.	.	.	.
4r	.	.	16dd\LL	.	16ff#\LL	.	4r	.	.	4r	.	.	4r	.	.	4r	.	.	4r	.	4r	.
.	.	.	16ee\	.	16gg\	.	.	.	.	.	.	.	.	.	.	.	.	.	.	.	.	.
.	.	.	16ee#X\	.	16gg#X\	.	.	.	.	.	.	.	.	.	.	.	.	.	.	.	.	.
.	.	.	16ff#\JJ	.	16aa\JJ	.	.	.	.	.	.	.	.	.	.	.	.	.	.	.	.	.
!	!	!	!	!	!	!	!	!	!	!	!	!	!LO:LB:g=original	!	!	!LO:LB:g=original	!	!	!	!	!	!
=7	=7	=7	=7	=7	=7	=7	=7	=7	=7	=7	=7	=7	=7	=7	=7	=7	=7	=7	=7	=7	=7	=7
*	*	*	*	*	*	*	*	*	*	*	*	*	*	*	*	*	*	*	*2\right	*	*2\right	*
4B\	7	.	4dd\	.	16gg#X\LL	.	2.B\	San-	.	2f#\	San-	.	2a\	San-	.	2.dd\	San-	.	2ff#\	.	2aa\	.
.	.	.	.	.	16aa\	.	.	.	.	.	.	.	.	.	.	.	.	.	.	.	.	.
.	.	.	.	.	16bb\	.	.	.	.	.	.	.	.	.	.	.	.	.	.	.	.	.
.	.	.	.	.	16aa\JJ	.	.	.	.	.	.	.	.	.	.	.	.	.	.	.	.	.
4B\	.	.	4dd\	.	8aa\L	.	.	.	.	.	.	.	.	.	.	.	.	.	.	.	.	.
.	.	.	.	.	8aa\	.	.	.	.	.	.	.	.	.	.	.	.	.	.	.	.	.
4B\	6	.	4dd\	.	8gg#\	.	.	.	.	4e\	.	.	4g#X\	.	.	.	.	.	4ee\	.	4gg#X\	.
.	.	.	.	.	8gg#\J	.	.	.	.	.	.	.	.	.	.	.	.	.	.	.	.	.
=8	=8	=8	=8	=8	=8	=8	=8	=8	=8	=8	=8	=8	=8	=8	=8	=8	=8	=8	=8	=8	=8	=8
4A\	3	.	4cc#\	.	4aa\	.	2A\	-cto	.	2e\	-cto	.	2a\	-cto	.	2cc#\	-cto	.	4a/	.	4aa\	.
4AA/	.	.	4cc#\	.	4aa\	.	.	.	.	.	.	.	.	.	.	.	.	.	4a/	.	4aa\	.
4r	.	.	4r	.	4r	.	4r	.	.	4r	.	.	4r	.	.	4r	.	.	4r	.	4r	.
!LO:LB:g=original	!	!	!LO:LB:g=original	!	!LO:LB:g=original	!	!LO:LB:g=original	!	!	!LO:LB:g=original	!	!	!LO:LB:g=original	!	!	!LO:LB:g=original	!	!	!LO:LB:g=original	!	!LO:LB:g=original	!
=9||	=9||	=9||	=9||	=9||	=9||	=9||	=9||	=9||	=9||	=9||	=9||	=9||	=9||	=9||	=9||	=9||	=9||	=9||	=9||	=9||	=9||	=9||
*M2/4	*	*	*M2/4	*	*M2/4	*	*M2/4	*	*	*M2/4	*	*	*M2/4	*	*	*M2/4	*	*	*M2/4	*	*M2/4	*
!!!OMD:
!!!OMD-mod: Allegro
!	!	!	!	!	!	!	!	!	!	!	!	!	!LO:MO:null:mod=!LO&colon;TX&colon;a&colon;i&colon;t=Solo	!	!	!LO:TX:a:i:t=Solo	!	!	!	!	!LO:TX:a:B:t=allegro:mod=	!
!LO:TX:a:B:t=Allegro:mod=	!	!	!	!	!LO:TX:a:B:t=allegro:mod=	!	!	!	!	!	!	!	!LO:TX:a:B:t=allegro:mod=	!	!	!LO:TX:a:rj:B:t=allegro:mod=	!	!	!	!	!	!
8D\L	.	.	4.f#/	.	4.dd\	.	0r	.	.	0r	.	.	4.f#\	Si-	.	4.dd\	Si-	.	0r	.	0r	.
8D\	.	.	.	.	.	.	.	.	.	.	.	.	.	.	.	.	.	.	.	.	.	.
8D\	.	.	.	.	.	.	.	.	.	.	.	.	.	.	.	.	.	.	.	.	.	.
!	!	!	!LO:TX:a:B:t=allegro:mod=	!	!	!	!	!	!	!	!	!	!	!	!	!	!	!	!	!	!	!
8D\J	.	.	8g/	.	8ee\	.	.	.	.	.	.	.	8g\	-cut	.	8ee\	-cut	.	.	.	.	.
=10	=10	=10	=10	=10	=10	=10	=10-	=10	=10	=10-	=10	=10	=10	=10	=10	=10	=10	=10	=10-	=10	=10-	=10
!LO:TX:a:i:t=Solo	!	!LO:DY:a:rj:t-p.	!	!	!	!	!	!	!	!	!	!	!LO:TX:a:i:t=Solo:mod=	!	!	!	!	!	!	!	!	!
8D\L	.	p	4.a/	.	4.ff#\	.	.	.	.	.	.	.	4.a\	e-	.	4.ff#\	e-	.	.	.	.	.
8D\	.	.	.	.	.	.	.	.	.	.	.	.	.	.	.	.	.	.	.	.	.	.
8D\	.	.	.	.	.	.	.	.	.	.	.	.	.	.	.	.	.	.	.	.	.	.
!	!	!	!	!LO:MO:null:mod=!LO&colon;DY&colon;ed=brack	!	!	!	!	!	!	!	!	!	!	!	!	!	!	!	!	!	!
!	!	!	!	!	!	!	!	!	!	!	!	!	!	!	!	!	!	!	!	!	!	!
!	!	!	!	!LO:MO:null:mod=p	!	!LO:DY:a:rj:t=p.	!	!	!	!	!	!	!	!	!	!	!	!	!	!	!	!
8D\J	.	.	8f#/	.	8dd\	p	.	.	.	.	.	.	8f#\	-rat	.	8dd\	-rat	.	.	.	.	.
=11	=11	=11	=11	=11	=11	=11	=11-	=11	=11	=11-	=11	=11	=11	=11	=11	=11	=11	=11	=11-	=11	=11-	=11
!	!	!	!	!LO:DY:a:t=piano	!	!	!	!	!	!	!	!	!	!	!	!	!	!	!	!	!	!
!	!	!	!	!LO:MO:mod=.	!	!	!	!	!	!	!	!	!	!	!	!	!	!	!	!	!	!
8G\L	6:	.	4.b/	p	4.gg\	.	.	.	.	.	.	.	4.b\	in	.	4.gg\	in	.	.	.	.	.
8G\	.	.	.	.	.	.	.	.	.	.	.	.	.	.	.	.	.	.	.	.	.	.
8G\	.	.	.	.	.	.	.	.	.	.	.	.	.	.	.	.	.	.	.	.	.	.
8G\J	.	.	8g/	.	8ee\	.	.	.	.	.	.	.	8g\	prin-	.	8ee\	prin-	.	.	.	.	.
=12	=12	=12	=12	=12	=12	=12	=12-	=12	=12	=12-	=12	=12	=12	=12	=12	=12	=12	=12	=12-	=12	=12-	=12
8A\L	.	.	8f#/L	.	8dd\L	.	.	.	.	.	.	.	8f#\	-ci-	.	8dd\	-ci-	.	.	.	.	.
8A\	.	.	8e/J	.	8cc#\J	.	.	.	.	.	.	.	8e\	-pi-	.	8cc#\	-pi-	.	.	.	.	.
8A\	.	.	4e/	.	4cc#\	.	.	.	.	.	.	.	4e\	-o	.	4cc#\	-o	.	.	.	.	.
8A\J	.	.	.	.	.	.	.	.	.	.	.	.	.	.	.	.	.	.	.	.	.	.
=13	=13	=13	=13	=13	=13	=13	=13-	=13	=13	=13-	=13	=13	=13	=13	=13	=13	=13	=13	=13-	=13	=13-	=13
*tremolo	*	*	*	*	*	*	*	*	*	*	*	*	*	*	*	*	*	*	*	*	*	*
8D\L	.	.	4.f#/	.	4.dd\	.	0r	.	.	0r	.	.	(>4.f#\	et	.	(>4.dd\	et	.	0r	.	0r	.
8D\	.	.	.	.	.	.	.	.	.	.	.	.	.	.	.	.	.	.	.	.	.	.
8D\	.	.	.	.	.	.	.	.	.	.	.	.	.	.	.	.	.	.	.	.	.	.
8D\J	.	.	16g/LL	.	16ee\LL	.	.	.	.	.	.	.	16g\LL)	.	.	16ee\LL)	.	.	.	.	.	.
.	.	.	16f#/JJ	.	16dd\JJ	.	.	.	.	.	.	.	16f#\JJ	.	.	16dd\JJ	.	.	.	.	.	.
=14	=14	=14	=14	=14	=14	=14	=14-	=14	=14	=14-	=14	=14	=14	=14	=14	=14	=14	=14	=14-	=14	=14-	=14
8AA/L	.	.	4.e/	.	4.cc#\	.	.	.	.	.	.	.	4.e\	nunc	.	4.cc#\	nunc	.	.	.	.	.
8AA/	.	.	.	.	.	.	.	.	.	.	.	.	.	.	.	.	.	.	.	.	.	.
8AA/	.	.	.	.	.	.	.	.	.	.	.	.	.	.	.	.	.	.	.	.	.	.
8AA/J	.	.	16f#/LL	.	16dd\LL	.	.	.	.	.	.	.	16f#\LL	et	.	16dd\LL	et	.	.	.	.	.
.	.	.	16g/JJ	.	16ee\JJ	.	.	.	.	.	.	.	16g\JJ	.	.	16ee\JJ	.	.	.	.	.	.
=15	=15	=15	=15	=15	=15	=15	=15-	=15	=15	=15-	=15	=15	=15	=15	=15	=15	=15	=15	=15-	=15	=15-	=15
*2\right	*	*	*	*	*	*	*	*	*	*	*	*	*	*	*	*	*	*	*	*	*	*
!	!	!	!	!	!	!	!	!	!	!	!	!	!	!	!	!	!LO:MO:mod=nunc	!	!	!	!	!
8D\L	.	.	4a/	.	4ff#\	.	.	.	.	.	.	.	4a\	nunc	.	4ff#\	Sem-	.	.	.	.	.
8D\	.	.	.	.	.	.	.	.	.	.	.	.	.	.	.	.	.	.	.	.	.	.
!	!	!	!	!	!	!	!	!	!	!	!	!	!	!	!	!	!LO:MO:null:mod=et	!	!	!	!	!
8D\	.	.	8g/L	.	8ee\L	.	.	.	.	.	.	.	8g\L	et	.	8ee\L	.	.	.	.	.	.
8D\J	.	.	8f#/J	.	8dd\J	.	.	.	.	.	.	.	8f#\J	.	.	8dd\J	.	.	.	.	.	.
*Xtremolo	*	*	*	*	*	*	*	*	*	*	*	*	*	*	*	*	*	*	*	*	*	*
!	!	!	!	!	!	!	!	!	!	!	!	!	!	!	!	!LO:LB:g=original	!	!	!	!	!	!
=16	=16	=16	=16	=16	=16	=16	=16-	=16	=16	=16-	=16	=16	=16	=16	=16	=16	=16	=16	=16-	=16	=16-	=16
!LO:TX:t=P:problem=mixed beam	!	!	!	!	!	!	!	!	!	!	!	!	!	!	!	!	!LO:MO:null:mod=Sem-	!	!	!	!	!
8A\L	7	.	8.f#/L	.	8.dd\L	.	.	.	.	.	.	.	4f#\	Sem-	.	4dd\	.	.	.	.	.	.
8A\	.	.	.	.	.	.	.	.	.	.	.	.	.	.	.	.	.	.	.	.	.	.
.	.	.	32g/LL	.	32ee\LL	.	.	.	.	.	.	.	.	.	.	.	.	.	.	.	.	.
.	.	.	32f#/JJJ	.	32dd\JJJ	.	.	.	.	.	.	.	.	.	.	.	.	.	.	.	.	.
8AA/	3	.	8e/L	.	8cc#\L	.	.	.	.	.	.	.	4e\	-per	.	4cc#\	-per	.	.	.	.	.
8AA/J	.	.	8a/J	.	8a\J	.	.	.	.	.	.	.	.	.	.	.	.	.	.	.	.	.
!	!	!	!	!	!	!	!	!	!	!	!	!	!	!LO:LB:g=original	!	!	!	!	!	!	!	!
=17	=17	=17	=17	=17	=17	=17	=17	=17	=17	=17	=17	=17	=17	=17	=17	=17	=17	=17	=17	=17	=17	=17
*	*	*	*^	*	*	*	*	*	*	*	*	*	*	*	*	*	*	*	*	*	*	*
*	*	*	*Xtremolo	*Xtremolo	*	*	*	*	*	*	*	*	*	*	*	*	*	*	*	*	*	*	*
!LO:TX:a:i:t=tutti	!	!	!	!	!LO:DY:a:t=for	!	!LO:DY:a:t=for	!	!	!	!	!	!	!	!	!	!	!	!	!LO:TX:a:B:t=allegro:mod=	!	!LO:TX:a:B:t=allegro:mod=	!
8D\L	.	.	16a/LL	16f#\LL	f	4.dd\	f	4D\	Si-	.	4A\	Si-	.	4f#\	Si-	.	4dd\	Si-	.	2dd\	.	2ff#\	.
.	.	.	16a/	16f#\	.	.	.	.	.	.	.	.	.	.	.	.	.	.	.	.	.	.	.
8D\	.	.	16a/	16f#\	.	.	.	.	.	.	.	.	.	.	.	.	.	.	.	.	.	.	.
.	.	.	16a/JJ	16f#\JJ	.	.	.	.	.	.	.	.	.	.	.	.	.	.	.	.	.	.	.
*	*	*	*tremolo	*tremolo	*	*	*	*	*	*	*	*	*	*	*	*	*	*	*	*	*	*	*
8D\	.	.	16a/LL	16f#\LL	.	.	.	4D\	-cut	.	4A\	-cut	.	4f#\	-cut	.	4dd\	-cut	.	.	.	.	.
.	.	.	16a/	16f#\	.	.	.	.	.	.	.	.	.	.	.	.	.	.	.	.	.	.	.
8D\J	.	.	16a/	16f#\	.	8ee\	.	.	.	.	.	.	.	.	.	.	.	.	.	.	.	.	.
.	.	.	16a/JJ	16f#\JJ	.	.	.	.	.	.	.	.	.	.	.	.	.	.	.	.	.	.	.
=18	=18	=18	=18	=18	=18	=18	=18	=18	=18	=18	=18	=18	=18	=18	=18	=18	=18	=18	=18	=18	=18	=18	=18
8D\L	.	.	16a/LL	16f#\LL	.	4.ff#\	.	4D\	e-	.	4A\	e-	.	4f#\	e-	.	4dd\	e-	.	2dd\	.	2ff#\	.
.	.	.	16a/	16f#\	.	.	.	.	.	.	.	.	.	.	.	.	.	.	.	.	.	.	.
8D\	.	.	16a/	16f#\	.	.	.	.	.	.	.	.	.	.	.	.	.	.	.	.	.	.	.
.	.	.	16a/JJ	16f#\JJ	.	.	.	.	.	.	.	.	.	.	.	.	.	.	.	.	.	.	.
8D\	.	.	16a/LL	16f#\LL	.	.	.	4D\	-rat	.	4A\	-rat	.	4f#\	-rat	.	4dd\	-rat	.	.	.	.	.
.	.	.	16a/	16f#\	.	.	.	.	.	.	.	.	.	.	.	.	.	.	.	.	.	.	.
8D\J	.	.	16a/	16f#\	.	8dd\	.	.	.	.	.	.	.	.	.	.	.	.	.	.	.	.	.
.	.	.	16a/JJ	16f#\JJ	.	.	.	.	.	.	.	.	.	.	.	.	.	.	.	.	.	.	.
!	!	!	!LO:LB:g=original	!LO:LB:g=original	!	!	!	!	!	!	!	!	!	!	!	!	!	!	!	!	!	!	!
=19	=19	=19	=19	=19	=19	=19	=19	=19	=19	=19	=19	=19	=19	=19	=19	=19	=19	=19	=19	=19	=19	=19	=19
*tremolo	*	*	*	*	*	*	*	*	*	*	*	*	*	*	*	*	*	*	*	*	*	*	*
!	!	!	!	!	!	!	!	!	!	!	!	!	!	!	!	!	!	!	!	!	!LO:DY:a:t=for	!	!LO:DY:a:t=for
8G\L	.	.	16b/LL	16g\LL	.	8ee\L	.	4G\	in	.	4B\	in	.	4g\	in	.	4ee\	in	.	2ee\	f	2gg\	f
.	.	.	16b/	16g\	.	.	.	.	.	.	.	.	.	.	.	.	.	.	.	.	.	.	.
8G\	.	.	16b/	16g\	.	8ff#\	.	.	.	.	.	.	.	.	.	.	.	.	.	.	.	.	.
.	.	.	16b/JJ	16g\JJ	.	.	.	.	.	.	.	.	.	.	.	.	.	.	.	.	.	.	.
8G\	.	.	16b/LL	16g\LL	.	8gg\	.	4G\	prin-	.	4B\	prin-	.	4g\	prin-	.	4ee\	prin-	.	.	.	.	.
.	.	.	16b/	16g\	.	.	.	.	.	.	.	.	.	.	.	.	.	.	.	.	.	.	.
8G\J	.	.	16b/	16g\	.	8ee\J	.	.	.	.	.	.	.	.	.	.	.	.	.	.	.	.	.
.	.	.	16b/JJ	16g\JJ	.	.	.	.	.	.	.	.	.	.	.	.	.	.	.	.	.	.	.
!LO:LB:g=original	!	!	!	!	!	!	!	!	!	!	!	!	!	!	!	!	!	!	!	!	!	!	!
=20	=20	=20	=20	=20	=20	=20	=20	=20	=20	=20	=20	=20	=20	=20	=20	=20	=20	=20	=20	=20	=20	=20	=20
8A\L	.	.	16a/LL	16e\LL	.	8dd\L	.	4A\	-ci-	.	4A\	-ci-	.	4e\	-ci-	.	4cc#\	-ci-	.	2a/	.	2ee\	.
.	.	.	16a/	16e\	.	.	.	.	.	.	.	.	.	.	.	.	.	.	.	.	.	.	.
8A\	.	.	16a/	16e\	.	8cc#\J	.	.	.	.	.	.	.	.	.	.	.	.	.	.	.	.	.
.	.	.	16a/JJ	16e\JJ	.	.	.	.	.	.	.	.	.	.	.	.	.	.	.	.	.	.	.
8A\	.	.	16a/LL	16e\LL	.	4cc#\	.	4A\	-pi-	.	4A\	-pi-	.	4e\	-pi-	.	4cc#\	-pi-	.	.	.	.	.
.	.	.	16a/	16e\	.	.	.	.	.	.	.	.	.	.	.	.	.	.	.	.	.	.	.
8A\J	.	.	16a/	16e\	.	.	.	.	.	.	.	.	.	.	.	.	.	.	.	.	.	.	.
.	.	.	16a/JJ	16e\JJ	.	.	.	.	.	.	.	.	.	.	.	.	.	.	.	.	.	.	.
=21	=21	=21	=21	=21	=21	=21	=21	=21	=21	=21	=21	=21	=21	=21	=21	=21	=21	=21	=21	=21	=21	=21	=21
8D\L	.	.	16a/LL	16f#\LL	.	4.dd\	.	4D\	-o	.	4A\	-o	.	4f#\	-o	.	4dd\	-o	.	2f#/	.	2dd\	.
.	.	.	16a/	16f#\	.	.	.	.	.	.	.	.	.	.	.	.	.	.	.	.	.	.	.
8D\	.	.	16a/	16f#\	.	.	.	.	.	.	.	.	.	.	.	.	.	.	.	.	.	.	.
.	.	.	16a/JJ	16f#\JJ	.	.	.	.	.	.	.	.	.	.	.	.	.	.	.	.	.	.	.
8D\	.	.	16a/LL	16f#\LL	.	.	.	4D\	et	.	4A\	et	.	4f#\	et	.	4dd\	et	.	.	.	.	.
.	.	.	16a/	16f#\	.	.	.	.	.	.	.	.	.	.	.	.	.	.	.	.	.	.	.
8D\J	.	.	16a/	16f#\	.	16cc#\LL	.	.	.	.	.	.	.	.	.	.	.	.	.	.	.	.	.
.	.	.	16a/JJ	16f#\JJ	.	16dd\JJ	.	.	.	.	.	.	.	.	.	.	.	.	.	.	.	.	.
*Xtremolo	*	*	*	*	*	*	*	*	*	*	*	*	*	*	*	*	*	*	*	*	*	*	*
=22	=22	=22	=22	=22	=22	=22	=22	=22	=22	=22	=22	=22	=22	=22	=22	=22	=22	=22	=22	=22	=22	=22	=22
8C#\L	6 5	.	16a/LL	16g\LL	.	8.ee\L	.	4C#\	nunc	.	4A\	nunc	.	4g\	nunc	.	4ee\	nunc	.	4a/	.	4ee\	.
.	.	.	16a/	16g\	.	.	.	.	.	.	.	.	.	.	.	.	.	.	.	.	.	.	.
8C#\	.	.	16a/	16g\	.	.	.	.	.	.	.	.	.	.	.	.	.	.	.	.	.	.	.
.	.	.	16a/JJ	16g\JJ	.	32dd\LL	.	.	.	.	.	.	.	.	.	.	.	.	.	.	.	.	.
.	.	.	.	.	.	32ee\JJJ	.	.	.	.	.	.	.	.	.	.	.	.	.	.	.	.	.
8D\	.	.	16a/LL	16g\LL	.	8ff#\L	.	4D\	et	.	4A\	et	.	4f#\	et	.	4ee\	et	.	4dd\	.	4ff#\	.
.	.	.	16a/	16g\	.	.	.	.	.	.	.	.	.	.	.	.	.	.	.	.	.	.	.
8D\J	.	.	16a/	16g\	.	8dd\J	.	.	.	.	.	.	.	.	.	.	.	.	.	.	.	.	.
.	.	.	16a/JJ	16g\JJ	.	.	.	.	.	.	.	.	.	.	.	.	.	.	.	.	.	.	.
*	*	*	*v	*v	*	*	*	*	*	*	*	*	*	*	*	*	*	*	*	*	*	*	*
=23	=23	=23	=23	=23	=23	=23	=23	=23	=23	=23	=23	=23	=23	=23	=23	=23	=23	=23	=23	=23	=23	=23
!	!	!	!	!	!	!	!LO:MO:mod=(4G	!	!	!	!	!	!	!	!	!LO:MO:mod=(4ee	!LO:MO:mod=Sem-	!	!	!	!	!
8G\L	6 x	.	16g/LL	.	8b\L	.	4G\	Sem-	.	(>4B\	Sem-	.	(>4g\	Sem-	.	4ee\	sem-	.	4ee\	.	4gg\	.
.	.	.	16g/	.	.	.	.	.	.	.	.	.	.	.	.	.	.	.	.	.	.	.
8G\	.	.	16g/	.	8ee\J	.	.	.	.	.	.	.	.	.	.	.	.	.	.	.	.	.
.	.	.	16g/JJ	.	.	.	.	.	.	.	.	.	.	.	.	.	.	.	.	.	.	.
.	.	.	.	.	8qqdd/	.	.	.	.	.	.	.	.	.	.	.	.	.	.	.	.	.
!	!	!	!	!	!	!	!LO:MO:mod=4A)	!	!	!	!	!	!	!	!	!LO:MO:mod=4cc#)	!	!	!	!	!	!
8A\	x 3:	.	16e/LL	.	8.cc#\L	.	4A\	.	.	4A\)	.	.	4e\)	.	.	4cc#\	.	.	4a/	.	4ee\	.
.	.	.	16e/	.	.	.	.	.	.	.	.	.	.	.	.	.	.	.	.	.	.	.
8A\J	.	.	16e/	.	.	.	.	.	.	.	.	.	.	.	.	.	.	.	.	.	.	.
.	.	.	16e/JJ	.	32b\LL	.	.	.	.	.	.	.	.	.	.	.	.	.	.	.	.	.
.	.	.	.	.	32cc#\JJJ	.	.	.	.	.	.	.	.	.	.	.	.	.	.	.	.	.
*	*	*	*Xtremolo	*	*	*	*	*	*	*	*	*	*	*	*	*	*	*	*	*	*	*
=24	=24	=24	=24	=24	=24	=24	=24	=24	=24	=24	=24	=24	=24	=24	=24	=24	=24	=24	=24	=24	=24	=24
8D\L	.	.	4f#/	.	4dd\	.	4D\	-per	.	4A\	-per	.	4f#\	-per	.	4dd\	-per	.	4f#/	.	4dd\	.
8d\	.	.	.	.	.	.	.	.	.	.	.	.	.	.	.	.	.	.	.	.	.	.
8D\J	.	.	8r	.	8r	.	4r	.	.	4r	.	.	4r	.	.	4r	.	.	4r	.	4r	.
8r	.	.	8a/	.	8a/	.	.	.	.	.	.	.	.	.	.	.	.	.	.	.	.	.
=25	=25	=25	=25	=25	=25	=25	=25	=25	=25	=25	=25	=25	=25	=25	=25	=25	=25	=25	=25	=25	=25	=25
!	!	!	!	!	!	!	!	!	!	!LO:MO:mod=!LO&colon;TX&colon;a&colon;i&colon;t=Solo	!	!	!	!	!	!	!	!	!	!	!	!
!LO:TX:a:i:t=taſto	!	!	!	!LO:DY:a:rj:t=p.	!	!LO:DY:a:rj:t=p.	!	!	!	!LO:TX:a:i:t=Solo:rj	!	!	!LO:TX:a:i:t=Solo	!	!	!	!	!	!	!	!	!
8AA/L	.	.	4.ee\	p	4.gg\	p	0r	.	.	4.e\	et	.	4.g\	et	.	0r	.	.	0r	.	0r	.
8AA/	.	.	.	.	.	.	.	.	.	.	.	.	.	.	.	.	.	.	.	.	.	.
8AA/	.	.	.	.	.	.	.	.	.	.	.	.	.	.	.	.	.	.	.	.	.	.
8AA/J	.	.	8dd\	.	8ff#\	.	.	.	.	8d\	in	.	8f#\	in	.	.	.	.	.	.	.	.
=26	=26	=26	=26	=26	=26	=26	=26-	=26	=26	=26	=26	=26	=26	=26	=26	=26-	=26	=26	=26-	=26	=26-	=26
*tremolo	*	*	*	*	*	*	*	*	*	*	*	*	*	*	*	*	*	*	*	*	*	*
8AA/L	.	.	4cc#\	.	4ee\	.	.	.	.	4c#\	Sae-	.	4e\	Sae-	.	.	.	.	.	.	.	.
8AA/	.	.	.	.	.	.	.	.	.	.	.	.	.	.	.	.	.	.	.	.	.	.
8AA/	.	.	8cc#\L	.	8ee\L	.	.	.	.	8c#\	-cu-	.	8e\	-cu-	.	.	.	.	.	.	.	.
8AA/J	.	.	8dd\J	.	8ff#\J	.	.	.	.	8d\	-la	.	8f#\	-la	.	.	.	.	.	.	.	.
!	!	!	!	!	!	!	!	!	!	!LO:LB:g=original	!	!	!	!LO:LB:g=original	!	!	!	!	!	!	!	!
=27	=27	=27	=27	=27	=27	=27	=27-	=27	=27	=27	=27	=27	=27	=27	=27	=27-	=27	=27	=27-	=27	=27-	=27
8AA/L	.	.	4.ee\	.	4.gg\	.	.	.	.	4.e\	Sae-	.	4.g\	Sae-	.	.	.	.	.	.	.	.
8AA/	.	.	.	.	.	.	.	.	.	.	.	.	.	.	.	.	.	.	.	.	.	.
8AA/	.	.	.	.	.	.	.	.	.	.	.	.	.	.	.	.	.	.	.	.	.	.
8AA/J	.	.	8dd\	.	8ff#\	.	.	.	.	8d\	-cu-	.	8f#\	-cu-	.	.	.	.	.	.	.	.
=28	=28	=28	=28	=28	=28	=28	=28-	=28	=28	=28	=28	=28	=28	=28	=28	=28-	=28	=28	=28-	=28	=28-	=28
8AA/L	.	.	8dd\L	.	8ff#\L	.	.	.	.	8d\L	-lo-	.	8f#\L	-lo-	.	.	.	.	.	.	.	.
8AA/	.	.	8cc#\J	.	8ee\J	.	.	.	.	8c#\J	.	.	8e\J	.	.	.	.	.	.	.	.	.
8AA/	.	.	4cc#\	.	4ee\	.	.	.	.	4c#\	-rum	.	4e\	-rum	.	.	.	.	.	.	.	.
8AA/J	.	.	.	.	.	.	.	.	.	.	.	.	.	.	.	.	.	.	.	.	.	.
*Xtremolo	*	*	*	*	*	*	*	*	*	*	*	*	*	*	*	*	*	*	*	*	*	*
!	!	!	!	!	!LO:LB:g=original	!	!	!	!	!	!	!	!	!	!	!	!	!	!	!	!	!
=29	=29	=29	=29	=29	=29	=29	=29	=29	=29	=29	=29	=29	=29	=29	=29	=29	=29	=29	=29	=29	=29	=29
*	*	*	*	*	*	*	*	*	*	*	*ij	*	*	*	*	*	*	*	*	*	*	*
!	!	!	!	!	!	!	!	!	!	!	!	!	!	!	!	!	!	!	!	!	!	!
!	!	!	!	!	!	!	!	!	!	!	!	!LO:MO:null:mod=!LO&colon;DY&colon;ed=brack	!	!	!LO:MO:null:mod=!LO&colon;DY&colon;ed=brack	!	!	!	!	!	!	!
!	!	!	!	!	!	!	!	!	!	!	!	!	!	!	!	!	!	!	!	!	!	!
!LO:TX:t=P:problem=mixed beam	!	!	!	!	!	!	!	!	!LO:DY:a:rj	!	!	!LO:MO:null:mod=p	!	!	!LO:MO:null:mod=p	!	!	!	!	!LO:DY:a:t=p.	!	!LO:DY:a:rj:t=p.
8A\L	x 3:	.	4.e/	.	4.cc#\	.	4.A\	Sae-	p	4A\	Sae-	.	4e\	Sae-	.	4.cc#\m	Sae-	.	2a/	p	2ee\	p
8AA/	.	.	.	.	.	.	.	.	.	.	.	.	.	.	.	.	.	.	.	.	.	.
8A\	.	.	.	.	.	.	.	.	.	4A\	-cu-	.	4e\	-cu-	.	.	.	.	.	.	.	.
8G\J	.	.	16d/LL	.	16b\LL	.	8G\	-cu-	.	.	.	.	.	.	.	8cc#\	-cu-	.	.	.	.	.
.	.	.	16e/JJ	.	16cc#\JJ	.	.	.	.	.	.	.	.	.	.	.	.	.	.	.	.	.
!	!	!	!	!	!	!	!LO:LB:g=original	!	!	!	!	!	!	!	!	!LO:LB:g=original	!	!	!	!	!	!
=30	=30	=30	=30	=30	=30	=30	=30	=30	=30	=30	=30	=30	=30	=30	=30	=30	=30	=30	=30	=30	=30	=30
8F#\L	6 x	.	8f#/L	.	8dd\L	.	8F#\L	-lo-	.	4A\	-lo-	.	4f#\	-lo-	.	4dd\	-lo-	.	4dd\	.	4ff#\	.
8D\	.	.	8a/	.	8ff#\	.	8D\J	.	.	.	.	.	.	.	.	.	.	.	.	.	.	.
8E\	6 x	.	8g/	.	8ee\	.	8E\L	-rum	.	8c#\L	-rum	.	8g\L	-rum	.	8cc#\L	-rum	.	8ee\L	.	8gg\L	.
*	*	*	*	*	*	*	*	*	*	*	*Xij	*	*	*	*	*	*	*	*	*	*	*
8F#\J	6 x	.	8f#/J	.	8dd\J	.	8F#\J	.	.	8d\J	.	.	8a\J	.	.	8dd\J	.	.	8dd\J	.	8ff#\J	.
!	!	!	!LO:LB:g=original	!	!	!	!	!	!	!	!	!	!	!	!	!	!	!	!	!	!	!
=31	=31	=31	=31	=31	=31	=31	=31	=31	=31	=31	=31	=31	=31	=31	=31	=31	=31	=31	=31	=31	=31	=31
8G\L	4 2	.	8e/L	.	8cc#\L	.	8G\L	a-	.	8e\L	a-	.	2a\	a-	.	8cc#\L	a-	.	8a/L	.	8ee\L	.
8F#\	6 x	.	8a/J	.	8dd\	.	8F#\	.	.	8d\	.	.	.	.	.	8dd\	.	.	8f#/	.	8dd\	.
8E\	6 x	.	8cc#\L	.	8ee\	.	8E\	.	.	8c#\	.	.	.	.	.	8ee\	.	.	8a/	.	8ee\	.
8D\J	.	.	8dd\J	.	8ff#\J	.	8D\J	.	.	8d\J	.	.	.	.	.	8ff#\J	.	.	8dd/J	.	8ff#\J	.
=32	=32	=32	=32	=32	=32	=32	=32	=32	=32	=32	=32	=32	=32	=32	=32	=32	=32	=32	=32	=32	=32	=32
!	!	!	!LO:MO:mod=4a 4ee	!	!LO:MO:mod=4a 4gg	!	!LO:MO:mod=4C#	!	!	!	!	!	!	!	!	!	!	!	!LO:MO:mod=4ee	!	!	!
4C#/	6 5	.	4a;>\ 4ee\	.	4a;>\ 4gg\	.	4C#;>/	-men	.	4e\	-men	.	4a\	-men	.	4gg\	-men	.	4ee;>\	.	4gg\	.
!	!	!	!LO:MO:mod=4r;	!	!LO:MO:mod=4r;	!	!LO:MO:mod=4r;	!	!	!	!	!	!	!	!	!	!	!	!LO:MO:mod=4r;	!	!	!
4r;>	.	.	4r	.	4r	.	4r	.	.	4r;>	.	.	4r;>	.	.	4r;>	.	.	4r	.	4r;>	.
!LO:LB:g=original	!	!	!	!	!	!	!	!	!	!	!	!	!	!	!	!	!	!	!	!	!	!
!LO:MO:mod==33||	!LO:MO:mod==33||	!LO:MO:mod==33||	!LO:MO:mod==33||	!LO:MO:mod==33||	!LO:MO:mod==33||	!LO:MO:mod==33||	!LO:MO:mod==33||	!LO:MO:mod==33||	!LO:MO:mod==33||	!LO:MO:mod==33||	!LO:MO:mod==33||	!LO:MO:mod==33||	!LO:MO:mod==33||	!LO:MO:mod==33||	!LO:MO:mod==33||	!LO:MO:mod==33||	!LO:MO:mod==33||	!LO:MO:mod==33||	!LO:MO:mod==33||	!LO:MO:mod==33||	!LO:MO:mod==33||	!LO:MO:mod==33||
=33	=33	=33	=33	=33	=33	=33	=33	=33	=33	=33	=33	=33	=33	=33	=33	=33	=33	=33	=33	=33	=33	=33
*	*	*	*^	*	*	*	*	*	*	*	*	*	*	*	*	*	*	*	*	*	*	*
*	*	*	*Xtremolo	*Xtremolo	*	*	*	*	*	*	*	*	*	*	*	*	*	*	*	*	*	*	*
!	!	!	!	!	!	!	!	!	!	!	!	!	!LO:MO:null:mod=!LO&colon;DY&colon;ed=brack	!	!	!LO:MO:null:mod=!LO&colon;DY&colon;ed=brack	!	!	!LO:MO:null:mod=!LO&colon;DY&colon;ed=brack	!	!	!	!
!	!	!	!	!	!	!	!	!	!	!	!	!	!	!	!	!	!	!	!	!	!	!	!
!LO:TX:a:i:t=tutti	!	!	!	!	!LO:DY:a:t=for	!	!LO:DY:a:t=for	!	!	!LO:DY:a	!	!	!LO:MO:null:mod=f	!	!	!LO:MO:null:mod=f	!	!	!LO:MO:null:mod=f	!	!LO:DY:a:t=for	!	!LO:DY:a:t=for
8D\L	.	.	16a/LL	16f#\LL	f	4.dd\	f	4D\	Si-	f	4A\	Si-	.	4f#\	Si-	.	4dd\	Si-	.	2dd\	f	2ff#\	f
.	.	.	16a/	16f#\	.	.	.	.	.	.	.	.	.	.	.	.	.	.	.	.	.	.	.
8D\	.	.	16a/	16f#\	.	.	.	.	.	.	.	.	.	.	.	.	.	.	.	.	.	.	.
.	.	.	16a/JJ	16f#\JJ	.	.	.	.	.	.	.	.	.	.	.	.	.	.	.	.	.	.	.
*	*	*	*tremolo	*tremolo	*	*	*	*	*	*	*	*	*	*	*	*	*	*	*	*	*	*	*
8D\	.	.	16a/LL	16f#\LL	.	.	.	4D\	-cut	.	4A\	-cut	.	4f#\	-cut	.	4dd\	-cut	.	.	.	.	.
.	.	.	16a/	16f#\	.	.	.	.	.	.	.	.	.	.	.	.	.	.	.	.	.	.	.
8D\J	.	.	16a/	16f#\	.	8ee\	.	.	.	.	.	.	.	.	.	.	.	.	.	.	.	.	.
.	.	.	16a/JJ	16f#\JJ	.	.	.	.	.	.	.	.	.	.	.	.	.	.	.	.	.	.	.
!	!	!	!	!	!	!	!	!	!	!	!	!	!	!	!	!	!	!	!	!	!	!LO:LB:g=original	!
=34	=34	=34	=34	=34	=34	=34	=34	=34	=34	=34	=34	=34	=34	=34	=34	=34	=34	=34	=34	=34	=34	=34	=34
8D\L	.	.	16a/LL	16f#\LL	.	4.ff#\	.	4D\	e-	.	4A\	e-	.	4f#\	e-	.	4dd\	e-	.	2dd\	.	2ff#\	.
.	.	.	16a/	16f#\	.	.	.	.	.	.	.	.	.	.	.	.	.	.	.	.	.	.	.
8D\	.	.	16a/	16f#\	.	.	.	.	.	.	.	.	.	.	.	.	.	.	.	.	.	.	.
.	.	.	16a/JJ	16f#\JJ	.	.	.	.	.	.	.	.	.	.	.	.	.	.	.	.	.	.	.
8D\	.	.	16a/LL	16f#\LL	.	.	.	4D\	-rat	.	4A\	-rat	.	4f#\	-rat	.	4dd\	-rat	.	.	.	.	.
.	.	.	16a/	16f#\	.	.	.	.	.	.	.	.	.	.	.	.	.	.	.	.	.	.	.
8D\J	.	.	16a/	16f#\	.	8dd\	.	.	.	.	.	.	.	.	.	.	.	.	.	.	.	.	.
.	.	.	16a/JJ	16f#\JJ	.	.	.	.	.	.	.	.	.	.	.	.	.	.	.	.	.	.	.
!	!	!	!	!	!	!	!	!	!	!	!	!	!	!	!	!	!	!	!	!LO:LB:g=original	!	!	!
=35	=35	=35	=35	=35	=35	=35	=35	=35	=35	=35	=35	=35	=35	=35	=35	=35	=35	=35	=35	=35	=35	=35	=35
8G\L	6: x	.	16b/LL	16g\LL	.	8ee\L	.	4G\	in	.	4B\	in	.	4g\	in	.	4ee\	in	.	2ee\	.	2gg\	.
.	.	.	16b/	16g\	.	.	.	.	.	.	.	.	.	.	.	.	.	.	.	.	.	.	.
8G\	.	.	16b/	16g\	.	8ff#\	.	.	.	.	.	.	.	.	.	.	.	.	.	.	.	.	.
.	.	.	16b/JJ	16g\JJ	.	.	.	.	.	.	.	.	.	.	.	.	.	.	.	.	.	.	.
8G\	.	.	16b/LL	16g\LL	.	8gg\	.	4G\	prin-	.	4B\	prin-	.	4g\	prin-	.	4ee\	prin-	.	.	.	.	.
.	.	.	16b/	16g\	.	.	.	.	.	.	.	.	.	.	.	.	.	.	.	.	.	.	.
8G\J	.	.	16b/	16g\	.	8ee\J	.	.	.	.	.	.	.	.	.	.	.	.	.	.	.	.	.
.	.	.	16b/JJ	16g\JJ	.	.	.	.	.	.	.	.	.	.	.	.	.	.	.	.	.	.	.
=36	=36	=36	=36	=36	=36	=36	=36	=36	=36	=36	=36	=36	=36	=36	=36	=36	=36	=36	=36	=36	=36	=36	=36
8A\L	.	.	16a/LL	16e\LL	.	8dd\L	.	4A\	-ci-	.	4A\	-ci-	.	4e\	-ci-	.	4cc#\	-ci-	.	2a/	.	2ee\	.
.	.	.	16a/	16e\	.	.	.	.	.	.	.	.	.	.	.	.	.	.	.	.	.	.	.
8A\	.	.	16a/	16e\	.	8cc#\J	.	.	.	.	.	.	.	.	.	.	.	.	.	.	.	.	.
.	.	.	16a/JJ	16e\JJ	.	.	.	.	.	.	.	.	.	.	.	.	.	.	.	.	.	.	.
8A\	.	.	16a/LL	16e\LL	.	4cc#\	.	4A\	-pi-	.	4A\	-pi-	.	4e\	-pi-	.	4cc#\	-pi-	.	.	.	.	.
.	.	.	16a/	16e\	.	.	.	.	.	.	.	.	.	.	.	.	.	.	.	.	.	.	.
8A\J	.	.	16a/	16e\	.	.	.	.	.	.	.	.	.	.	.	.	.	.	.	.	.	.	.
.	.	.	16a/JJ	16e\JJ	.	.	.	.	.	.	.	.	.	.	.	.	.	.	.	.	.	.	.
!	!	!	!	!	!	!	!	!	!	!	!	!	!	!LO:PB:g=original	!	!	!	!	!	!	!	!	!
=37	=37	=37	=37	=37	=37	=37	=37	=37	=37	=37	=37	=37	=37	=37	=37	=37	=37	=37	=37	=37	=37	=37	=37
*tremolo	*	*	*	*	*	*	*	*	*	*	*	*	*	*	*	*	*	*	*	*	*	*	*
8D\L	.	.	16a/LL	16f#\LL	.	4.dd\	.	4D\	-o	.	4A\	-o	.	4f#\	-o	.	4dd\	-o	.	2f#/	.	2dd\	.
.	.	.	16a/	16f#\	.	.	.	.	.	.	.	.	.	.	.	.	.	.	.	.	.	.	.
8D\	.	.	16a/	16f#\	.	.	.	.	.	.	.	.	.	.	.	.	.	.	.	.	.	.	.
.	.	.	16a/JJ	16f#\JJ	.	.	.	.	.	.	.	.	.	.	.	.	.	.	.	.	.	.	.
8D\	.	.	16a/LL	16f#\LL	.	.	.	4D\	et	.	4A\	et	.	4f#\	et	.	4dd\	et	.	.	.	.	.
.	.	.	16a/	16f#\	.	.	.	.	.	.	.	.	.	.	.	.	.	.	.	.	.	.	.
8D\J	.	.	16a/	16f#\	.	16cc#\LL	.	.	.	.	.	.	.	.	.	.	.	.	.	.	.	.	.
.	.	.	16a/JJ	16f#\JJ	.	16dd\JJ	.	.	.	.	.	.	.	.	.	.	.	.	.	.	.	.	.
*Xtremolo	*	*	*	*	*	*	*	*	*	*	*	*	*	*	*	*	*	*	*	*	*	*	*
!	!	!	!	!	!	!	!	!	!	!	!LO:LB:g=original	!	!	!	!	!	!	!	!	!	!	!	!
=38	=38	=38	=38	=38	=38	=38	=38	=38	=38	=38	=38	=38	=38	=38	=38	=38	=38	=38	=38	=38	=38	=38	=38
*	*	*	*	*tremolo	*	*	*	*	*	*	*	*	*	*	*	*	*	*	*	*	*	*	*
8C#\L	6 5	.	16a/LL	16g\LL	.	8.ee\L	.	4C#\	nun	.	4A\	nunc	.	4g\	nunc	.	4ee\	nunc	.	4a/	.	4ee\	.
.	.	.	16a/	16g\	.	.	.	.	.	.	.	.	.	.	.	.	.	.	.	.	.	.	.
8C#\	.	.	16a/	16g\	.	.	.	.	.	.	.	.	.	.	.	.	.	.	.	.	.	.	.
.	.	.	16a/JJ	16g\JJ	.	32dd\LL	.	.	.	.	.	.	.	.	.	.	.	.	.	.	.	.	.
.	.	.	.	.	.	32ee\JJJ	.	.	.	.	.	.	.	.	.	.	.	.	.	.	.	.	.
8D\	.	.	16a/LL	16g\LL	.	8ff#\L	.	4D\	et	.	4A\	et	.	4f#\	et	.	4dd\	et	.	4dd\	.	4ff#\	.
.	.	.	16a/	16g\	.	.	.	.	.	.	.	.	.	.	.	.	.	.	.	.	.	.	.
8D\J	.	.	16a/	16g\	.	8dd\J	.	.	.	.	.	.	.	.	.	.	.	.	.	.	.	.	.
.	.	.	16a/JJ	16g\JJ	.	.	.	.	.	.	.	.	.	.	.	.	.	.	.	.	.	.	.
*	*	*	*v	*v	*	*	*	*	*	*	*	*	*	*	*	*	*	*	*	*	*	*	*
=39	=39	=39	=39	=39	=39	=39	=39	=39	=39	=39	=39	=39	=39	=39	=39	=39	=39	=39	=39	=39	=39	=39
!	!	!	!	!	!	!	!LO:MO:mod=(4G	!	!	!	!	!	!LO:MO:mod=(4g	!	!	!	!	!	!	!	!	!
8G\L	6: x	.	16g/LL	.	8b\L	.	4G\	Sem-	.	(>4B\	Sem-	.	4g\	Sem-	.	(>4ee\	sem-	.	4ee\	.	4gg\	.
.	.	.	16g/	.	.	.	.	.	.	.	.	.	.	.	.	.	.	.	.	.	.	.
8G\	.	.	16g/	.	8ee\J	.	.	.	.	.	.	.	.	.	.	.	.	.	.	.	.	.
.	.	.	16g/JJ	.	.	.	.	.	.	.	.	.	.	.	.	.	.	.	.	.	.	.
.	.	.	.	.	8qqdd/	.	.	.	.	.	.	.	.	.	.	.	.	.	.	.	.	.
!	!	!	!	!	!	!	!LO:MO:mod=4A)	!	!	!	!	!	!LO:MO:mod=4e)	!	!	!	!	!	!	!	!	!
8A\	.	.	16e/LL	.	8cc#\L	.	4A\	.	.	4A\)	.	.	4e\	.	.	4cc#\)	.	.	4a/	.	4ee\	.
.	.	.	16e/	.	.	.	.	.	.	.	.	.	.	.	.	.	.	.	.	.	.	.
8A\J	.	.	16e/	.	16b\L	.	.	.	.	.	.	.	.	.	.	.	.	.	.	.	.	.
.	.	.	16e/JJ	.	16cc#\JJ	.	.	.	.	.	.	.	.	.	.	.	.	.	.	.	.	.
*	*	*	*Xtremolo	*	*	*	*	*	*	*	*	*	*	*	*	*	*	*	*	*	*	*
!	!	!	!	!	!LO:LB:g=original	!	!	!	!	!	!	!	!	!	!	!LO:LB:g=original	!	!	!	!	!	!
=40	=40	=40	=40	=40	=40	=40	=40	=40	=40	=40	=40	=40	=40	=40	=40	=40	=40	=40	=40	=40	=40	=40
!	!	!	!	!	!LO:TX:a:i:t=Solo	!	!	!	!	!	!	!	!	!	!	!	!	!	!	!	!	!
4D\	.	.	4f#/	.	8dd\L	.	4D\	-per	.	4A\	-per	.	4f#\	-per	.	4dd\	-per	.	4f#/	.	4dd\	.
.	.	.	.	.	8aa\	.	.	.	.	.	.	.	.	.	.	.	.	.	.	.	.	.
4r	.	.	4r	.	8aa\	.	4r	.	.	4r	.	.	4r	.	.	4r	.	.	4r	.	4r	.
.	.	.	.	.	8aa\J	.	.	.	.	.	.	.	.	.	.	.	.	.	.	.	.	.
=41	=41	=41	=41	=41	=41	=41	=41	=41	=41	=41	=41	=41	=41	=41	=41	=41	=41	=41	=41	=41	=41	=41
*	*	*	*^	*	*	*	*	*	*	*	*	*	*	*	*	*	*	*	*	*	*	*
!LO:TX:a:i:t=Solo	!	!	!	!	!	!	!	!	!	!	!	!	!	!	!	!	!	!	!	!	!	!	!
8r	.	.	8r	8rcyy	.	4.aa\	.	0r	.	.	0r	.	.	0r	.	.	0r	.	.	0r	.	0r	.
!	!	!	!LO:TX:a:i:t=Solo	!	!	!	!	!	!	!	!	!	!	!	!	!	!	!	!	!	!	!	!
8D\L	.	.	8a/L	8f#\L	.	.	.	.	.	.	.	.	.	.	.	.	.	.	.	.	.	.	.
!	!	!LO:DY:a	!	!	!	!	!	!	!	!	!	!	!	!	!	!	!	!	!	!	!	!	!
8D\	.	p	8a/	8f#\	.	.	.	.	.	.	.	.	.	.	.	.	.	.	.	.	.	.	.
8D\J	.	.	8a/J	8f#\J	.	16gg\LL	.	.	.	.	.	.	.	.	.	.	.	.	.	.	.	.	.
.	.	.	.	.	.	16ff#\JJ	.	.	.	.	.	.	.	.	.	.	.	.	.	.	.	.	.
!	!	!	!LO:LB:g=original	!LO:LB:g=original	!	!	!	!	!	!	!	!	!	!	!	!	!	!	!	!	!	!	!
=42	=42	=42	=42	=42	=42	=42	=42	=42-	=42	=42	=42-	=42	=42	=42-	=42	=42	=42-	=42	=42	=42-	=42	=42-	=42
4C#/	6: 5:	.	4a/	4e\	.	8ee\L	.	.	.	.	.	.	.	.	.	.	.	.	.	.	.	.	.
.	.	.	.	.	.	8aa\	.	.	.	.	.	.	.	.	.	.	.	.	.	.	.	.	.
4r	.	.	4r	4rcyy	.	8aa\	.	.	.	.	.	.	.	.	.	.	.	.	.	.	.	.	.
.	.	.	.	.	.	8aa\J	.	.	.	.	.	.	.	.	.	.	.	.	.	.	.	.	.
=43	=43	=43	=43	=43	=43	=43	=43	=43-	=43	=43	=43-	=43	=43	=43-	=43	=43	=43-	=43	=43	=43-	=43	=43-	=43
8r	.	.	8r	8rcyy	.	4.aa\	.	.	.	.	.	.	.	.	.	.	.	.	.	.	.	.	.
8C#/L	.	.	8a/L	8e\L	.	.	.	.	.	.	.	.	.	.	.	.	.	.	.	.	.	.	.
8C#/	.	.	8a/	8e\	.	.	.	.	.	.	.	.	.	.	.	.	.	.	.	.	.	.	.
8C#/J	.	.	8a/J	8e\J	.	8gg\	.	.	.	.	.	.	.	.	.	.	.	.	.	.	.	.	.
*	*	*	*v	*v	*	*	*	*	*	*	*	*	*	*	*	*	*	*	*	*	*	*	*
=44	=44	=44	=44	=44	=44	=44	=44-	=44	=44	=44-	=44	=44	=44-	=44	=44	=44-	=44	=44	=44-	=44	=44-	=44
4D\	.	.	8f#/L	.	8ff#\L	.	.	.	.	.	.	.	.	.	.	.	.	.	.	.	.	.
.	.	.	8a/	.	8aa\	.	.	.	.	.	.	.	.	.	.	.	.	.	.	.	.	.
4r	.	.	8a/	.	8aa\	.	.	.	.	.	.	.	.	.	.	.	.	.	.	.	.	.
.	.	.	8a/J	.	8aa\J	.	.	.	.	.	.	.	.	.	.	.	.	.	.	.	.	.
!LO:LB:g=original	!	!	!	!	!	!	!	!	!	!	!	!	!	!	!	!	!	!	!	!	!	!
=45	=45	=45	=45	=45	=45	=45	=45-	=45	=45	=45-	=45	=45	=45	=45	=45	=45	=45	=45	=45-	=45	=45-	=45
8r	.	.	4.a/	.	4.aa\	.	0r	.	.	0r	.	.	0r	.	.	0r	.	.	0r	.	0r	.
8F#\L	6: x	.	.	.	.	.	.	.	.	.	.	.	.	.	.	.	.	.	.	.	.	.
8F#\	.	.	.	.	.	.	.	.	.	.	.	.	.	.	.	.	.	.	.	.	.	.
8F#\J	.	.	16f#/LL	.	16ff#\LL	.	.	.	.	.	.	.	.	.	.	.	.	.	.	.	.	.
.	.	.	16d/JJ	.	16dd\JJ	.	.	.	.	.	.	.	.	.	.	.	.	.	.	.	.	.
=46	=46	=46	=46	=46	=46	=46	=46-	=46	=46	=46-	=46	=46	=46-	=46	=46	=46-	=46	=46	=46-	=46	=46-	=46
4G\	#5r x	.	8d#X/L	.	8dd#X\L	.	.	.	.	.	.	.	.	.	.	.	.	.	.	.	.	.
.	6 x	.	8e/	.	8ee\	.	.	.	.	.	.	.	.	.	.	.	.	.	.	.	.	.
4F#\	7 x	.	8e/	.	8ee\	.	.	.	.	.	.	.	.	.	.	.	.	.	.	.	.	.
.	n6r x	.	8dn/J	.	8ddn\J	.	.	.	.	.	.	.	.	.	.	.	.	.	.	.	.	.
=47	=47	=47	=47	=47	=47	=47	=47-	=47	=47	=47-	=47	=47	=47-	=47	=47	=47-	=47	=47	=47-	=47	=47-	=47
4E\	7 x	.	8d/L	.	8dd\L	.	.	.	.	.	.	.	.	.	.	.	.	.	.	.	.	.
.	6 x	.	8c#/	.	8cc#\	.	.	.	.	.	.	.	.	.	.	.	.	.	.	.	.	.
4C#\	6 3	.	8e/	.	8ee\	.	.	.	.	.	.	.	.	.	.	.	.	.	.	.	.	.
.	.	.	8a/J	.	8aa\J	.	.	.	.	.	.	.	.	.	.	.	.	.	.	.	.	.
=48	=48	=48	=48	=48	=48	=48	=48-	=48	=48	=48-	=48	=48	=48-	=48	=48	=48-	=48	=48	=48-	=48	=48-	=48
4D\	x 4	.	8.g/L	.	8.gg\L	.	.	.	.	.	.	.	.	.	.	.	.	.	.	.	.	.
.	.	.	32f#/LL	.	32ff#\LL	.	.	.	.	.	.	.	.	.	.	.	.	.	.	.	.	.
.	.	.	32g/JJJ	.	32gg\JJJ	.	.	.	.	.	.	.	.	.	.	.	.	.	.	.	.	.
!	!	!	!	!	!LO:TX:t=P:problem=mixed beam	!	!	!	!	!	!	!	!	!	!	!	!	!	!	!	!	!
4DD/	x 3	.	8f#/L	.	8ff#\L	.	.	.	.	.	.	.	.	.	.	.	.	.	.	.	.	.
.	.	.	8A/J	.	8a/J	.	.	.	.	.	.	.	.	.	.	.	.	.	.	.	.	.
=49	=49	=49	=49	=49	=49	=49	=49-	=49	=49	=49-	=49	=49	=49-	=49	=49	=49-	=49	=49	=49-	=49	=49-	=49
4F#\	6: x	.	4.a/	.	4.aa\	.	0r	.	.	0r	.	.	0r	.	.	0r	.	.	0r	.	0r	.
4F#\	.	.	.	.	.	.	.	.	.	.	.	.	.	.	.	.	.	.	.	.	.	.
.	.	.	16f#/LL	.	16ff#\LL	.	.	.	.	.	.	.	.	.	.	.	.	.	.	.	.	.
.	.	.	16d/JJ	.	16dd\JJ	.	.	.	.	.	.	.	.	.	.	.	.	.	.	.	.	.
!	!	!	!	!	!LO:LB:g=original	!	!	!	!	!	!	!	!	!	!	!	!	!	!	!	!	!
=50	=50	=50	=50	=50	=50	=50	=50-	=50	=50	=50-	=50	=50	=50-	=50	=50	=50-	=50	=50	=50-	=50	=50-	=50
!	!	!	!	!	!LO:MO:mod=(8dd#X\L	!	!	!	!	!	!	!	!	!	!	!	!	!	!	!	!	!
4G\	#5r x	.	(<8d#X/L	.	8dd#X\L	.	.	.	.	.	.	.	.	.	.	.	.	.	.	.	.	.
!	!	!	!	!	!LO:MO:mod=8ee\)	!	!	!	!	!	!	!	!	!	!	!	!	!	!	!	!	!
.	6 x	.	8e/)	.	8ee\	.	.	.	.	.	.	.	.	.	.	.	.	.	.	.	.	.
!	!	!	!	!	!LO:MO:mod=(8ee#X\	!	!	!	!	!	!	!	!	!	!	!	!	!	!	!	!	!
4A\	5 x	.	(<8e#X/	.	8ee#X\	.	.	.	.	.	.	.	.	.	.	.	.	.	.	.	.	.
!	!	!	!	!	!LO:MO:mod=8ff#\J)	!	!	!	!	!	!	!	!	!	!	!	!	!	!	!	!	!
.	6 x	.	8f#/J)	.	8ff#\J	.	.	.	.	.	.	.	.	.	.	.	.	.	.	.	.	.
=51	=51	=51	=51	=51	=51	=51	=51-	=51	=51	=51-	=51	=51	=51-	=51	=51	=51-	=51	=51	=51-	=51	=51-	=51
!	!	!	!	!	!LO:MO:mod=(8ff#\L	!	!	!	!	!	!	!	!	!	!	!	!	!	!	!	!	!
4B\	5 6	.	(<8f#/L	.	8ff#\L	.	.	.	.	.	.	.	.	.	.	.	.	.	.	.	.	.
!	!	!	!	!	!LO:MO:mod=8gg\)	!	!	!	!	!	!	!	!	!	!	!	!	!	!	!	!	!
.	.	.	8g/)	.	8gg\	.	.	.	.	.	.	.	.	.	.	.	.	.	.	.	.	.
!	!	!	!	!	!LO:MO:mod=(8b\	!	!	!	!	!	!	!	!	!	!	!	!	!	!	!	!	!
4G#X\	6 x	.	(<8B/	.	8b\	.	.	.	.	.	.	.	.	.	.	.	.	.	.	.	.	.
!	!	!	!LO:MO:mod=8enJ	!	!LO:MO:mod=8een\J)	!	!	!	!	!	!	!	!	!	!	!	!	!	!	!	!	!
.	.	.	8e/J)	.	8een\J	.	.	.	.	.	.	.	.	.	.	.	.	.	.	.	.	.
!	!	!	!LO:LB:g=original	!	!	!	!	!	!	!	!	!	!	!	!	!	!	!	!	!	!	!
=52	=52	=52	=52	=52	=52	=52	=52-	=52	=52	=52-	=52	=52	=52-	=52	=52	=52-	=52	=52	=52-	=52	=52-	=52
!	!	!	!	!	!LO:MO:mod=(8.dd\L	!	!	!	!	!	!	!	!	!	!	!	!	!	!	!	!	!
4A\	x 4	.	(<8.d/L	.	8.dd\L	.	.	.	.	.	.	.	.	.	.	.	.	.	.	.	.	.
.	.	.	32e/LL	.	32cc#\LL	.	.	.	.	.	.	.	.	.	.	.	.	.	.	.	.	.
!	!	!	!	!	!LO:MO:mod=32dd\JJJ)	!	!	!	!	!	!	!	!	!	!	!	!	!	!	!	!	!
.	.	.	32d/JJJ)	.	32dd\JJJ	.	.	.	.	.	.	.	.	.	.	.	.	.	.	.	.	.
4AA/	x 3	.	8c#/L	.	8cc#\L	.	.	.	.	.	.	.	.	.	.	.	.	.	.	.	.	.
.	.	.	8a/J	.	8a\J	.	.	.	.	.	.	.	.	.	.	.	.	.	.	.	.	.
!	!	!	!	!	!	!	!LO:LB:g=original	!	!	!	!	!	!	!	!	!	!	!	!	!	!	!
=53	=53	=53	=53	=53	=53	=53	=53	=53	=53	=53	=53	=53	=53	=53	=53	=53	=53	=53	=53	=53	=53	=53
!LO:TX:a:i:t=tutti	!	!	!	!LO:DY:a:t=for	!	!LO:DY:a:rj:t=for	!	!	!	!	!	!	!	!	!	!	!	!	!	!	!	!
8A\L	.	.	16cc#\LL	f	4.aa\	f	4A\	Si-	.	4A\	Si-	.	4e\	Si-	.	4cc#\	Si-	.	4A/	.	4a/	.
.	.	.	16cc#\	.	.	.	.	.	.	.	.	.	.	.	.	.	.	.	.	.	.	.
8A\	.	.	16cc#\	.	.	.	.	.	.	.	.	.	.	.	.	.	.	.	.	.	.	.
.	.	.	16cc#\JJ	.	.	.	.	.	.	.	.	.	.	.	.	.	.	.	.	.	.	.
*	*	*	*tremolo	*	*	*	*	*	*	*	*	*	*	*	*	*	*	*	*	*	*	*
8A\	.	.	16cc#\LL	.	.	.	4A\	-cut	.	4A\	-cut	.	4e\	-cut	.	4cc#\	-cut	.	8A/L	.	8a/L	.
.	.	.	16cc#\	.	.	.	.	.	.	.	.	.	.	.	.	.	.	.	.	.	.	.
8A\J	.	.	16cc#\	.	8gg\	.	.	.	.	.	.	.	.	.	.	.	.	.	8A/J	.	8a/J	.
.	.	.	16cc#\JJ	.	.	.	.	.	.	.	.	.	.	.	.	.	.	.	.	.	.	.
=54	=54	=54	=54	=54	=54	=54	=54	=54	=54	=54	=54	=54	=54	=54	=54	=54	=54	=54	=54	=54	=54	=54
*tremolo	*	*	*	*	*	*	*	*	*	*	*	*	*	*	*	*	*	*	*	*	*	*
8A\L	6 4	.	16dd\LL	.	(>8gg\L	.	4A\	e-	.	4A\	e-	.	4f#\	e-	.	4dd\	e-	.	4A/	.	4a/	.
.	.	.	16dd\	.	.	.	.	.	.	.	.	.	.	.	.	.	.	.	.	.	.	.
8A\	.	.	16dd\	.	8ff#\)	.	.	.	.	.	.	.	.	.	.	.	.	.	.	.	.	.
.	.	.	16dd\JJ	.	.	.	.	.	.	.	.	.	.	.	.	.	.	.	.	.	.	.
!	!	!	!	!	!LO:TX:a:t=|:problem	!	!	!	!	!	!	!	!	!	!	!	!	!	!	!	!	!
8A\	.	.	16dd\LL	.	8ff#\	.	4A\	-rat	.	4A\	-rat	.	4f#\	-rat	.	4dd\	-rat	.	4r	.	4r	.
.	.	.	16dd\	.	.	.	.	.	.	.	.	.	.	.	.	.	.	.	.	.	.	.
!	!	!	!	!	!LO:TX:a:t=|:problem	!	!	!	!	!	!	!	!	!	!	!	!	!	!	!	!	!
8A\J	.	.	16dd\	.	8ff#\J	.	.	.	.	.	.	.	.	.	.	.	.	.	.	.	.	.
.	.	.	16dd\JJ	.	.	.	.	.	.	.	.	.	.	.	.	.	.	.	.	.	.	.
*	*	*	*Xtremolo	*	*	*	*	*	*	*	*	*	*	*	*	*	*	*	*	*	*	*
=55	=55	=55	=55	=55	=55	=55	=55	=55	=55	=55	=55	=55	=55	=55	=55	=55	=55	=55	=55	=55	=55	=55
8A\L	#4r 2	.	16b\LL	.	4.gg#X\	.	4A\	in	.	4A\	in	.	4g#X\	in	.	4b\	in	.	4A/	.	4a/	.
.	.	.	16b\	.	.	.	.	.	.	.	.	.	.	.	.	.	.	.	.	.	.	.
8A\	.	.	16b\	.	.	.	.	.	.	.	.	.	.	.	.	.	.	.	.	.	.	.
.	.	.	16b\JJ	.	.	.	.	.	.	.	.	.	.	.	.	.	.	.	.	.	.	.
*	*	*	*tremolo	*	*	*	*	*	*	*	*	*	*	*	*	*	*	*	*	*	*	*
8A\	.	.	16b\LL	.	.	.	4A\	prin-	.	4A\	prin-	.	4g#\	prin-	.	4b\	prin-	.	8A/L	.	8a/L	.
.	.	.	16b\	.	.	.	.	.	.	.	.	.	.	.	.	.	.	.	.	.	.	.
8A\J	.	.	16b\	.	16ff#\LL	.	.	.	.	.	.	.	.	.	.	.	.	.	8A/J	.	8a/J	.
.	.	.	16b\JJ	.	16gg#\JJ	.	.	.	.	.	.	.	.	.	.	.	.	.	.	.	.	.
*	*	*	*Xtremolo	*	*	*	*	*	*	*	*	*	*	*	*	*	*	*	*	*	*	*
=56	=56	=56	=56	=56	=56	=56	=56	=56	=56	=56	=56	=56	=56	=56	=56	=56	=56	=56	=56	=56	=56	=56
8A\L	8: 3:	.	16cc#\LL	.	(>8aa\L	.	4A\	-ci-	.	4A\	-ci-	.	4a\	-ci-	.	4cc#\	-ci-	.	4A/	.	4a/	.
.	.	.	16cc#\	.	.	.	.	.	.	.	.	.	.	.	.	.	.	.	.	.	.	.
8A\	.	.	16cc#\	.	8ee\)	.	.	.	.	.	.	.	.	.	.	.	.	.	.	.	.	.
.	.	.	16cc#\JJ	.	.	.	.	.	.	.	.	.	.	.	.	.	.	.	.	.	.	.
*	*	*	*tremolo	*	*	*	*	*	*	*	*	*	*	*	*	*	*	*	*	*	*	*
!	!	!	!	!	!LO:TX:a:t=|:problem	!	!	!	!	!	!	!	!	!	!	!	!	!	!	!	!	!
8A\	.	.	16cc#\LL	.	8ee\	.	4A\	-pi-	.	4A\	-pi-	.	4a\	-pi-	.	4cc#\	-pi-	.	4r	.	4r	.
.	.	.	16cc#\	.	.	.	.	.	.	.	.	.	.	.	.	.	.	.	.	.	.	.
!	!	!	!	!	!LO:TX:a:t=|:problem	!	!	!	!	!	!	!	!	!	!	!	!	!	!	!	!	!
8A\J	.	.	16cc#\	.	8ee\J	.	.	.	.	.	.	.	.	.	.	.	.	.	.	.	.	.
.	.	.	16cc#\JJ	.	.	.	.	.	.	.	.	.	.	.	.	.	.	.	.	.	.	.
*Xtremolo	*	*	*	*	*	*	*	*	*	*	*	*	*	*	*	*	*	*	*	*	*	*
!LO:LB:g=original	!	!	!	!	!	!	!	!	!	!	!	!	!	!	!	!	!	!	!	!	!	!
=57	=57	=57	=57	=57	=57	=57	=57	=57	=57	=57	=57	=57	=57	=57	=57	=57	=57	=57	=57	=57	=57	=57
8A\L	.	.	16cc#\LL	.	4.aa\	.	4A\	-o	.	4A\	-o	.	4e\	-o	.	4cc#\	-o	.	4A/	.	4a/	.
.	.	.	16cc#\	.	.	.	.	.	.	.	.	.	.	.	.	.	.	.	.	.	.	.
8A\	.	.	16cc#\	.	.	.	.	.	.	.	.	.	.	.	.	.	.	.	.	.	.	.
.	.	.	16cc#\JJ	.	.	.	.	.	.	.	.	.	.	.	.	.	.	.	.	.	.	.
8A\	.	.	16cc#\LL	.	.	.	4A\	et	.	4A\	et	.	4e\	et	.	4cc#\	et	.	8A/L	.	8a/L	.
.	.	.	16cc#\	.	.	.	.	.	.	.	.	.	.	.	.	.	.	.	.	.	.	.
8A\J	.	.	16cc#\	.	8ggn\	.	.	.	.	.	.	.	.	.	.	.	.	.	8A/J	.	8a/J	.
.	.	.	16cc#\JJ	.	.	.	.	.	.	.	.	.	.	.	.	.	.	.	.	.	.	.
!	!	!	!	!	!	!	!	!	!	!	!	!	!LO:LB:g=original	!	!	!	!	!	!	!	!	!
=58	=58	=58	=58	=58	=58	=58	=58	=58	=58	=58	=58	=58	=58	=58	=58	=58	=58	=58	=58	=58	=58	=58
8A\L	6: 4:	.	16dd\LL	.	(>8gg\L	.	4A\	nunc	.	4A\	nunc	.	4f#\	nunc	.	4dd\	nunc	.	4A/	.	4a/	.
.	.	.	16dd\	.	.	.	.	.	.	.	.	.	.	.	.	.	.	.	.	.	.	.
8A\	.	.	16dd\	.	8ff#\)	.	.	.	.	.	.	.	.	.	.	.	.	.	.	.	.	.
.	.	.	16dd\JJ	.	.	.	.	.	.	.	.	.	.	.	.	.	.	.	.	.	.	.
!	!	!	!	!	!LO:TX:a:t=|:problem	!	!	!	!	!	!	!	!	!	!	!	!	!	!	!	!	!
8A\	.	.	16dd\LL	.	8ff#\	.	4A\	et	.	4A\	et	.	4f#\	et	.	4dd\	et	.	4r	.	4r	.
.	.	.	16dd\	.	.	.	.	.	.	.	.	.	.	.	.	.	.	.	.	.	.	.
!	!	!	!	!	!LO:TX:a:t=|:problem	!	!	!	!	!	!	!	!	!	!	!	!	!	!	!	!	!
8A\J	.	.	16dd\	.	8ff#\J	.	.	.	.	.	.	.	.	.	.	.	.	.	.	.	.	.
.	.	.	16dd\JJ	.	.	.	.	.	.	.	.	.	.	.	.	.	.	.	.	.	.	.
=59	=59	=59	=59	=59	=59	=59	=59	=59	=59	=59	=59	=59	=59	=59	=59	=59	=59	=59	=59	=59	=59	=59
*tremolo	*	*	*	*	*	*	*	*	*	*	*	*	*	*	*	*	*	*	*	*	*	*
8A\L	#7r 2	.	16b\LL	.	4.gg#X\	.	4A\	nunc	.	4A\	nunc	.	4g#X\	nunc	.	4b\	nunc	.	4A/	.	4a/	.
.	.	.	16b\	.	.	.	.	.	.	.	.	.	.	.	.	.	.	.	.	.	.	.
8A\	.	.	16b\	.	.	.	.	.	.	.	.	.	.	.	.	.	.	.	.	.	.	.
.	.	.	16b\JJ	.	.	.	.	.	.	.	.	.	.	.	.	.	.	.	.	.	.	.
8A\	.	.	16b\LL	.	.	.	4A\	et	.	4A\	et	.	4g#\	et	.	4b\	et	.	8A/L	.	8a/L	.
.	.	.	16b\	.	.	.	.	.	.	.	.	.	.	.	.	.	.	.	.	.	.	.
8A\J	.	.	16b\	.	16ff#\LL	.	.	.	.	.	.	.	.	.	.	.	.	.	8A/J	.	8a/J	.
.	.	.	16b\JJ	.	16gg#\JJ	.	.	.	.	.	.	.	.	.	.	.	.	.	.	.	.	.
!	!	!	!	!	!LO:LB:g=original	!	!	!	!	!	!	!	!	!	!	!	!	!	!LO:LB:g=original	!	!LO:LB:g=original	!
=60	=60	=60	=60	=60	=60	=60	=60	=60	=60	=60	=60	=60	=60	=60	=60	=60	=60	=60	=60	=60	=60	=60
!	!	!	!	!	!	!	!	!LO:MO:mod=Sem-	!	!	!	!	!	!	!	!	!	!	!	!	!	!
8A\L	8: 3:	.	16cc#\LL	.	(>8aa\L	.	4A\	sem-	.	4A\	Sem-	.	4a\	Sem-	.	4cc#\	Sem-	.	4A/	.	4a/	.
.	.	.	16cc#\	.	.	.	.	.	.	.	.	.	.	.	.	.	.	.	.	.	.	.
8A\	.	.	16cc#\	.	8ee\)	.	.	.	.	.	.	.	.	.	.	.	.	.	.	.	.	.
.	.	.	16cc#\JJ	.	.	.	.	.	.	.	.	.	.	.	.	.	.	.	.	.	.	.
!	!	!	!	!	!LO:TX:a:t=|:problem	!	!	!	!	!	!	!	!	!	!	!	!	!	!	!	!	!
8A\	.	.	16cc#\LL	.	8ee\	.	4A\	-per	.	4A\	-per	.	4a\	-per	.	4cc#\	-per	.	4r	.	4r	.
.	.	.	16cc#\	.	.	.	.	.	.	.	.	.	.	.	.	.	.	.	.	.	.	.
!	!	!	!	!	!LO:TX:a:t=|:problem	!	!	!	!	!	!	!	!	!	!	!	!	!	!	!	!	!
8A\J	.	.	16cc#\	.	8ee\J	.	.	.	.	.	.	.	.	.	.	.	.	.	.	.	.	.
.	.	.	16cc#\JJ	.	.	.	.	.	.	.	.	.	.	.	.	.	.	.	.	.	.	.
!	!	!	!	!	!	!	!	!	!	!LO:LB:g=original	!	!	!	!	!	!	!	!	!	!	!	!
=61	=61	=61	=61	=61	=61	=61	=61	=61	=61	=61	=61	=61	=61	=61	=61	=61	=61	=61	=61	=61	=61	=61
8G#X\L	6 5	.	16e/LL	.	4dd\	.	4G#X\	et	.	4e\	et	.	4b\	et	.	4dd\	et	.	2ee\	.	2ee\	.
.	.	.	16e/	.	.	.	.	.	.	.	.	.	.	.	.	.	.	.	.	.	.	.
8G#\	.	.	16e/	.	.	.	.	.	.	.	.	.	.	.	.	.	.	.	.	.	.	.
.	.	.	16e/JJ	.	.	.	.	.	.	.	.	.	.	.	.	.	.	.	.	.	.	.
8G#\	.	.	16e/LL	.	16ee\LL	.	4G#\	in	.	4e\	in	.	4b\	in	.	4dd\	in	.	.	.	.	.
.	.	.	16e/	.	16dd\	.	.	.	.	.	.	.	.	.	.	.	.	.	.	.	.	.
8G#\J	.	.	16e/	.	16cc#\	.	.	.	.	.	.	.	.	.	.	.	.	.	.	.	.	.
.	.	.	16e/JJ	.	16dd\JJ	.	.	.	.	.	.	.	.	.	.	.	.	.	.	.	.	.
!	!	!	!LO:LB:g=original	!	!	!	!	!	!	!	!	!	!	!	!	!LO:LB:g=original	!	!	!	!	!	!
=62	=62	=62	=62	=62	=62	=62	=62	=62	=62	=62	=62	=62	=62	=62	=62	=62	=62	=62	=62	=62	=62	=62
8A\L	.	.	16e/LL	.	8cc#\L	.	4A\	Sae-	.	4e\	Sae-	.	4a\	Sae-	.	4cc#\	Sae-	.	2a/	.	2ee\	.
.	.	.	16e/	.	.	.	.	.	.	.	.	.	.	.	.	.	.	.	.	.	.	.
8A\	.	.	16e/	.	8ee\	.	.	.	.	.	.	.	.	.	.	.	.	.	.	.	.	.
.	.	.	16e/JJ	.	.	.	.	.	.	.	.	.	.	.	.	.	.	.	.	.	.	.
8A\	.	.	16e/LL	.	8aa\	.	8A\	-cu-	.	8e\	-cu-	.	8a\	-cu-	.	8cc#\	-cu-	.	.	.	.	.
.	.	.	16e/	.	.	.	.	.	.	.	.	.	.	.	.	.	.	.	.	.	.	.
8A\J	.	.	16e/	.	8cc#\J	.	8A\	-la	.	8e\	-la	.	8a\	-la	.	8cc#\	-la	.	.	.	.	.
.	.	.	16e/JJ	.	.	.	.	.	.	.	.	.	.	.	.	.	.	.	.	.	.	.
!	!	!	!	!	!	!	!LO:LB:g=original	!	!	!	!	!	!	!	!	!	!	!	!	!	!	!
=63	=63	=63	=63	=63	=63	=63	=63	=63	=63	=63	=63	=63	=63	=63	=63	=63	=63	=63	=63	=63	=63	=63
8G#X\L	6 5	.	16e/LL	.	4dd\	.	4G#X\	Sae-	.	4e\	Sae-	.	4b\	Sae-	.	4dd\	Sae-	.	2ee\	.	2ee\	.
.	.	.	16e/	.	.	.	.	.	.	.	.	.	.	.	.	.	.	.	.	.	.	.
8G#\	.	.	16e/	.	.	.	.	.	.	.	.	.	.	.	.	.	.	.	.	.	.	.
.	.	.	16e/JJ	.	.	.	.	.	.	.	.	.	.	.	.	.	.	.	.	.	.	.
8G#\	.	.	16e/LL	.	16ee\LL	.	4G#\	-cu-	.	4e\	-cu-	.	4b\	-cu-	.	4dd\	-cu-	.	.	.	.	.
.	.	.	16e/	.	16dd\	.	.	.	.	.	.	.	.	.	.	.	.	.	.	.	.	.
8G#\J	.	.	16e/	.	16cc#\	.	.	.	.	.	.	.	.	.	.	.	.	.	.	.	.	.
.	.	.	16e/JJ	.	16dd\JJ	.	.	.	.	.	.	.	.	.	.	.	.	.	.	.	.	.
=64	=64	=64	=64	=64	=64	=64	=64	=64	=64	=64	=64	=64	=64	=64	=64	=64	=64	=64	=64	=64	=64	=64
8A\L	.	.	16e/LL	.	8cc#\L	.	4A\	-lo-	.	4e\	-lo-	.	4a\	-lo-	.	4cc#\	-lo-	.	2a/	.	2ee\	.
.	.	.	16e/	.	.	.	.	.	.	.	.	.	.	.	.	.	.	.	.	.	.	.
8A\	.	.	16e/	.	8ee\	.	.	.	.	.	.	.	.	.	.	.	.	.	.	.	.	.
.	.	.	16e/JJ	.	.	.	.	.	.	.	.	.	.	.	.	.	.	.	.	.	.	.
8A\	.	.	16e/LL	.	8aa\	.	4A\	-rum	.	4e\	-rum	.	4a\	-rum	.	4cc#\	-rum	.	.	.	.	.
.	.	.	16e/	.	.	.	.	.	.	.	.	.	.	.	.	.	.	.	.	.	.	.
8A\J	.	.	16e/	.	8cc#\J	.	.	.	.	.	.	.	.	.	.	.	.	.	.	.	.	.
.	.	.	16e/JJ	.	.	.	.	.	.	.	.	.	.	.	.	.	.	.	.	.	.	.
*Xtremolo	*	*	*	*	*	*	*	*	*	*	*	*	*	*	*	*	*	*	*	*	*	*
=65	=65	=65	=65	=65	=65	=65	=65	=65	=65	=65	=65	=65	=65	=65	=65	=65	=65	=65	=65	=65	=65	=65
*	*	*	*	*	*	*	*	*ij	*	*	*	*	*	*	*	*	*ij	*	*	*	*	*
8D\L	6: x	.	16f#/LL	.	4.ff#\	.	4D\	Sae-	.	4f#\	Sae-	.	4b\	Sae-	.	4dd\	Sae-	.	4dd\	.	4ff#\	.
.	.	.	16f#/	.	.	.	.	.	.	.	.	.	.	.	.	.	.	.	.	.	.	.
8D\	.	.	16f#/	.	.	.	.	.	.	.	.	.	.	.	.	.	.	.	.	.	.	.
.	.	.	16f#/JJ	.	.	.	.	.	.	.	.	.	.	.	.	.	.	.	.	.	.	.
8D\	.	.	16f#/LL	.	.	.	4D\	-cu-	.	4f#\	-cu-	.	4b\	-cu-	.	4dd\	-cu-	.	8dd\L	.	8ff#\L	.
.	.	.	16f#/	.	.	.	.	.	.	.	.	.	.	.	.	.	.	.	.	.	.	.
8D\J	.	.	16f#/	.	16dd\LL	.	.	.	.	.	.	.	.	.	.	.	.	.	8dd\J	.	8ff#\J	.
.	.	.	16f#/JJ	.	16b\JJ	.	.	.	.	.	.	.	.	.	.	.	.	.	.	.	.	.
=66	=66	=66	=66	=66	=66	=66	=66	=66	=66	=66	=66	=66	=66	=66	=66	=66	=66	=66	=66	=66	=66	=66
8C#\L	6 x	.	16e/LL	.	8.a/L	.	4C#\	-lo-	.	4e\	-lo-	.	4a\	-lo-	.	4cc#\	-lo-	.	4a/	.	4ee\	.
.	.	.	16e/	.	.	.	.	.	.	.	.	.	.	.	.	.	.	.	.	.	.	.
8C#\	.	.	16e/	.	.	.	.	.	.	.	.	.	.	.	.	.	.	.	.	.	.	.
.	.	.	16e/JJ	.	32g#X/LL	.	.	.	.	.	.	.	.	.	.	.	.	.	.	.	.	.
.	.	.	.	.	32a/JJJ	.	.	.	.	.	.	.	.	.	.	.	.	.	.	.	.	.
8D\	6 x	.	16f#/LL	.	8b\L	.	4D\	-rum	.	4f#\	-rum	.	4b\	-rum	.	4dd\	-rum	.	4dd\	.	4ff#\	.
*	*	*	*	*	*	*	*	*Xij	*	*	*	*	*	*	*	*	*Xij	*	*	*	*	*
.	.	.	16f#/	.	.	.	.	.	.	.	.	.	.	.	.	.	.	.	.	.	.	.
8D\J	.	.	16f#/	.	8dd\J	.	.	.	.	.	.	.	.	.	.	.	.	.	.	.	.	.
.	.	.	16f#/JJ	.	.	.	.	.	.	.	.	.	.	.	.	.	.	.	.	.	.	.
=67	=67	=67	=67	=67	=67	=67	=67	=67	=67	=67	=67	=67	=67	=67	=67	=67	=67	=67	=67	=67	=67	=67
!LO:TX:t=P:problem=mixed beam	!	!	!	!	!	!	!	!	!	!	!	!	!	!	!	!	!	!	!	!	!	!
8E\L	x 4	.	16a/LL	.	4cc#\	.	2E\	a-	.	2e\	a-	.	4a\	a-	.	4cc#\	a-	.	4ee\	.	4ee\	.
.	.	.	16a/	.	.	.	.	.	.	.	.	.	.	.	.	.	.	.	.	.	.	.
8E\	.	.	16a/	.	.	.	.	.	.	.	.	.	.	.	.	.	.	.	.	.	.	.
.	.	.	16a/JJ	.	.	.	.	.	.	.	.	.	.	.	.	.	.	.	.	.	.	.
.	.	.	.	.	16qqcc#/	.	.	.	.	.	.	.	.	.	.	.	.	.	.	.	.	.
8EE/	x #	.	16g#X/LL	.	8b\L	.	.	.	.	.	.	.	4g#X\	.	.	4b\	.	.	4ee\	.	4ee\	.
.	.	.	16g#/	.	.	.	.	.	.	.	.	.	.	.	.	.	.	.	.	.	.	.
8EE/J	.	.	16g#/	.	16a\L	.	.	.	.	.	.	.	.	.	.	.	.	.	.	.	.	.
.	.	.	16g#/JJ	.	16b\JJ	.	.	.	.	.	.	.	.	.	.	.	.	.	.	.	.	.
*	*	*	*Xtremolo	*	*	*	*	*	*	*	*	*	*	*	*	*	*	*	*	*	*	*
!	!	!	!	!	!	!	!	!	!	!	!	!	!LO:LB:g=original	!	!	!	!	!	!	!	!	!
=68	=68	=68	=68	=68	=68	=68	=68	=68	=68	=68	=68	=68	=68	=68	=68	=68	=68	=68	=68	=68	=68	=68
!	!	!LO:DY:a:t=p.	!LO:TX:a:i:t=Solo	!	!LO:TX:a:i:t=Solo	!	!	!	!	!	!	!	!	!	!	!	!	!	!	!	!	!
4AA/	.	p	4a/	.	16cc#\LL	.	4AA/	-men	.	4e\	-men	.	4a\	-men	.	4cc#\	-men	.	4a/	.	4ee\	.
.	.	.	.	.	16b\	.	.	.	.	.	.	.	.	.	.	.	.	.	.	.	.	.
.	.	.	.	.	16cc#\	.	.	.	.	.	.	.	.	.	.	.	.	.	.	.	.	.
.	.	.	.	.	16dd\JJ	.	.	.	.	.	.	.	.	.	.	.	.	.	.	.	.	.
8r	.	.	8r	.	8ee\L	.	4r	.	.	4r	.	.	4r	.	.	4r	.	.	4r	.	4r	.
8A\	.	.	[<8e/	.	8ee\J	.	.	.	.	.	.	.	.	.	.	.	.	.	.	.	.	.
!LO:LB:g=original	!	!	!	!	!LO:LB:g=original	!	!	!	!	!	!	!	!	!	!	!	!	!	!	!	!	!
=69	=69	=69	=69	=69	=69	=69	=69	=69	=69	=69	=69	=69	=69	=69	=69	=69	=69	=69	=69	=69	=69	=69
!	!	!	!	!	!	!	!	!	!	!LO:TX:t=P:problem=błędnie liczba 15 nad pauzami	!	!	!	!	!	!	!	!	!	!	!	!
4B\	x 4	.	8e/]	.	8ee\	.	0r	.	.	0r	.	.	0r	.	.	0r	.	.	0r	.	0r	.
.	x #3r	.	4d#X/	.	4dd#X\	.	.	.	.	.	.	.	.	.	.	.	.	.	.	.	.	.
4A\	6 x	.	.	.	.	.	.	.	.	.	.	.	.	.	.	.	.	.	.	.	.	.
.	.	.	[<8f#/	.	[<8ff#\	.	.	.	.	.	.	.	.	.	.	.	.	.	.	.	.	.
=70	=70	=70	=70	=70	=70	=70	=70-	=70	=70	=70-	=70	=70	=70-	=70	=70	=70-	=70	=70	=70-	=70	=70-	=70
4G\	7 x	.	8f#/]	.	8ff#\]	.	.	.	.	.	.	.	.	.	.	.	.	.	.	.	.	.
.	6 x	.	4e/	.	4ee\	.	.	.	.	.	.	.	.	.	.	.	.	.	.	.	.	.
4G#X\	n5r x	.	.	.	.	.	.	.	.	.	.	.	.	.	.	.	.	.	.	.	.	.
.	.	.	[<8dn/	.	[<8ddn\	.	.	.	.	.	.	.	.	.	.	.	.	.	.	.	.	.
=71	=71	=71	=71	=71	=71	=71	=71-	=71	=71	=71-	=71	=71	=71-	=71	=71	=71-	=71	=71	=71-	=71	=71-	=71
4A\	x 3	.	8d/]	.	8dd\]	.	.	.	.	.	.	.	.	.	.	.	.	.	.	.	.	.
.	.	.	4c#/	.	4cc#\	.	.	.	.	.	.	.	.	.	.	.	.	.	.	.	.	.
4Gn\	x 6	.	.	.	.	.	.	.	.	.	.	.	.	.	.	.	.	.	.	.	.	.
.	.	.	[<8e/	.	[<8ee\	.	.	.	.	.	.	.	.	.	.	.	.	.	.	.	.	.
=72	=72	=72	=72	=72	=72	=72	=72-	=72	=72	=72-	=72	=72	=72-	=72	=72	=72-	=72	=72	=72-	=72	=72-	=72
4F#\	7 x	.	8e/]	.	8ee\]	.	.	.	.	.	.	.	.	.	.	.	.	.	.	.	.	.
.	6 x	.	4d/	.	4dd\	.	.	.	.	.	.	.	.	.	.	.	.	.	.	.	.	.
4F#\	#6r x	.	.	.	.	.	.	.	.	.	.	.	.	.	.	.	.	.	.	.	.	.
.	n x	.	8cn/	.	8ccn\	.	.	.	.	.	.	.	.	.	.	.	.	.	.	.	.	.
!	!	!	!LO:LB:g=original	!	!	!	!	!	!	!	!	!	!	!	!	!	!	!	!	!	!	!
=73	=73	=73	=73	=73	=73	=73	=73-	=73	=73	=73-	=73	=73	=73-	=73	=73	=73-	=73	=73	=73-	=73	=73-	=73
4G\	7 x	.	8B/	.	8b\	.	0r	.	.	0r	.	.	0r	.	.	0r	.	.	0r	.	0r	.
.	6 x	.	4e/	.	4ee\	.	.	.	.	.	.	.	.	.	.	.	.	.	.	.	.	.
4A\	5 x	.	.	.	.	.	.	.	.	.	.	.	.	.	.	.	.	.	.	.	.	.
.	6 x	.	[<8f#/	.	[<8ff#\	.	.	.	.	.	.	.	.	.	.	.	.	.	.	.	.	.
=74	=74	=74	=74	=74	=74	=74	=74-	=74	=74	=74-	=74	=74	=74-	=74	=74	=74-	=74	=74	=74-	=74	=74-	=74
4B\	5 x	.	8f#/]	.	8ff#\]	.	.	.	.	.	.	.	.	.	.	.	.	.	.	.	.	.
.	6 x	.	4g#X/	.	4gg#X\	.	.	.	.	.	.	.	.	.	.	.	.	.	.	.	.	.
4c#\	#5r x	.	.	.	.	.	.	.	.	.	.	.	.	.	.	.	.	.	.	.	.	.
.	6 x	.	[<8a/	.	[<8aa\	.	.	.	.	.	.	.	.	.	.	.	.	.	.	.	.	.
=75	=75	=75	=75	=75	=75	=75	=75-	=75	=75	=75-	=75	=75	=75-	=75	=75	=75-	=75	=75	=75-	=75	=75-	=75
2d\	4: 2:	.	8a/]	.	8aa\]	.	.	.	.	.	.	.	.	.	.	.	.	.	.	.	.	.
.	.	.	4b/	.	4bb\	.	.	.	.	.	.	.	.	.	.	.	.	.	.	.	.	.
.	.	.	8g#X/	.	8gg#X\	.	.	.	.	.	.	.	.	.	.	.	.	.	.	.	.	.
=76	=76	=76	=76	=76	=76	=76	=76-	=76	=76	=76	=76	=76	=76	=76	=76	=76-	=76	=76	=76-	=76	=76-	=76
!	!	!	!	!	!LO:TX:t=P:problem=mixed beam	!	!	!	!	!	!	!	!	!	!	!	!	!	!	!	!	!
4c#\	6 x	.	4a/	.	8aa\L	.	.	.	.	.	.	.	.	.	.	.	.	.	.	.	.	.
.	.	.	.	.	8a/J	.	.	.	.	.	.	.	.	.	.	.	.	.	.	.	.	.
8r	.	.	8r	.	[<4aa\	.	.	.	.	.	.	.	.	.	.	.	.	.	.	.	.	.
8c#\	6 x	.	8a/	.	.	.	.	.	.	.	.	.	.	.	.	.	.	.	.	.	.	.
=77	=77	=77	=77	=77	=77	=77	=77-	=77	=77	=77-	=77	=77	=77-	=77	=77	=77-	=77	=77	=77-	=77	=77-	=77
!	!	!	!	!	!LO:MO:mod=!null:null	!	!	!	!	!	!	!	!	!	!	!	!	!	!	!	!	!
!	!	!	!	!	!LO:N:xstem	!	!	!	!	!	!	!	!	!	!	!	!	!	!	!	!	!
4.d\	6 5	.	2b/	.	8aa\]	.	0r	.	.	0r	.	.	0r	.	.	0r	.	.	0r	.	0r	.
.	.	.	.	.	8ff#\	.	.	.	.	.	.	.	.	.	.	.	.	.	.	.	.	.
.	.	.	.	.	[<4ggn\	.	.	.	.	.	.	.	.	.	.	.	.	.	.	.	.	.
8e\	x 3	.	.	.	.	.	.	.	.	.	.	.	.	.	.	.	.	.	.	.	.	.
=78	=78	=78	=78	=78	=78	=78	=78-	=78	=78	=78-	=78	=78	=78-	=78	=78	=78-	=78	=78	=78-	=78	=78-	=78
!	!	!	!	!	!LO:MO:mod=!null:null	!	!	!	!	!	!	!	!	!	!	!	!	!	!	!	!	!
!	!	!	!	!	!LO:N:xstem	!	!	!	!	!`	!	!	!	!	!	!	!	!	!	!	!	!
4.c#\	6 5	.	2a/	.	8gg\]	.	.	.	.	.	.	.	.	.	.	.	.	.	.	.	.	.
!	!	!	!	!	!LO:LB:g=original	!	!	!	!	!	!	!	!	!	!	!	!	!	!	!	!	!
.	.	.	.	.	8ee\	.	.	.	.	.	.	.	.	.	.	.	.	.	.	.	.	.
.	.	.	.	.	[<4ff#\	.	.	.	.	.	.	.	.	.	.	.	.	.	.	.	.	.
8d\	x 3	.	.	.	.	.	.	.	.	.	.	.	.	.	.	.	.	.	.	.	.	.
=79	=79	=79	=79	=79	=79	=79	=79-	=79	=79	=79-	=79	=79	=79-	=79	=79	=79-	=79	=79	=79-	=79	=79-	=79
!	!	!	!	!	!LO:MO:mod=!null:null	!	!	!	!	!	!	!	!	!	!	!	!	!	!	!	!	!
!	!	!	!	!	!LO:N:xstem	!	!	!	!	!	!	!	!	!	!	!	!	!	!	!	!	!
4.B\	6 5	.	2gn/	.	8ff#\]	.	.	.	.	.	.	.	.	.	.	.	.	.	.	.	.	.
.	.	.	.	.	8dd\	.	.	.	.	.	.	.	.	.	.	.	.	.	.	.	.	.
.	.	.	.	.	[<4ee\	.	.	.	.	.	.	.	.	.	.	.	.	.	.	.	.	.
8c#\	x 3	.	.	.	.	.	.	.	.	.	.	.	.	.	.	.	.	.	.	.	.	.
!LO:LB:g=original	!	!	!	!	!	!	!	!	!	!	!	!	!	!	!	!	!	!	!	!	!	!
=80	=80	=80	=80	=80	=80	=80	=80-	=80	=80	=80-	=80	=80	=80-	=80	=80	=80-	=80	=80	=80-	=80	=80-	=80
4.A\	6 5	.	4.f#/	.	8ee\]	.	.	.	.	.	.	.	.	.	.	.	.	.	.	.	.	.
.	.	.	.	.	8cc#\	.	.	.	.	.	.	.	.	.	.	.	.	.	.	.	.	.
.	.	.	.	.	[<4dd\	.	.	.	.	.	.	.	.	.	.	.	.	.	.	.	.	.
8B\	x 3	.	[<8d/	.	.	.	.	.	.	.	.	.	.	.	.	.	.	.	.	.	.	.
=81	=81	=81	=81	=81	=81	=81	=81-	=81	=81	=81-	=81	=81	=81-	=81	=81	=81-	=81	=81	=81-	=81	=81-	=81
4G\	5 x	.	8d/]	.	8dd\]	.	0r	.	.	0r	.	.	1r	.	.	1r	.	.	0r	.	0r	.
.	6 x	.	4e/	.	4ee\	.	.	.	.	.	.	.	.	.	.	.	.	.	.	.	.	.
4A\	x 3	.	.	.	.	.	.	.	.	.	.	.	.	.	.	.	.	.	.	.	.	.
.	.	.	[<8c#/	.	[<8cc#\	.	.	.	.	.	.	.	.	.	.	.	.	.	.	.	.	.
=82	=82	=82	=82	=82	=82	=82	=82-	=82	=82	=82-	=82	=82	=82-	=82	=82	=82-	=82	=82	=82-	=82	=82-	=82
4B\	x 3	.	8c#/]	.	8cc#\]	.	.	.	.	.	.	.	.	.	.	.	.	.	.	.	.	.
.	.	.	4d/	.	4dd\	.	.	.	.	.	.	.	.	.	.	.	.	.	.	.	.	.
4G\	5 x	.	.	.	.	.	.	.	.	.	.	.	.	.	.	.	.	.	.	.	.	.
.	6 x	.	[<8e/	.	[<8ee\	.	.	.	.	.	.	.	.	.	.	.	.	.	.	.	.	.
=83	=83	=83	=83	=83	=83	=83	=83-	=83	=83	=83-	=83	=83	=83-	=83	=83	=83-	=83	=83	=83-	=83	=83-	=83
4A\	5 x	.	8e/]	.	8ee\]	.	.	.	.	.	.	.	2r	.	.	2r	.	.	.	.	.	.
.	4 x	.	4d/	.	4dd\	.	.	.	.	.	.	.	.	.	.	.	.	.	.	.	.	.
4AA/	4 x	.	.	.	.	.	.	.	.	.	.	.	.	.	.	.	.	.	.	.	.	.
.	3 x	.	8c#/	.	8cc#\	.	.	.	.	.	.	.	.	.	.	.	.	.	.	.	.	.
!	!	!	!LO:LB:g=original	!	!	!	!	!	!	!	!	!	!	!	!	!	!	!	!	!	!	!
=84	=84	=84	=84	=84	=84	=84	=84-	=84	=84	=84-	=84	=84	=84	=84	=84	=84	=84	=84	=84-	=84	=84-	=84
!	!	!LO:DY:a:t=p.	!	!LO:DY:a:t=p.	!	!LO:DY:a:t=p.	!	!	!	!	!	!	!LO:TX:a:i:t=Solo	!	!	!LO:TX:a:i:t=Solo	!	!	!	!	!	!
8D\L	.	p	4.f#/	p	4.dd\	p	.	.	.	.	.	.	4.f#\	Si-	.	4.dd\	Si-	.	.	.	.	.
8D\	.	.	.	.	.	.	.	.	.	.	.	.	.	.	.	.	.	.	.	.	.	.
8D\	.	.	.	.	.	.	.	.	.	.	.	.	.	.	.	.	.	.	.	.	.	.
8D\J	.	.	8g/	.	8ee\	.	.	.	.	.	.	.	8g\	-cut	.	8ee\	-cut	.	.	.	.	.
=85	=85	=85	=85	=85	=85	=85	=85-	=85	=85	=85-	=85	=85	=85	=85	=85	=85	=85	=85	=85-	=85	=85-	=85
*tremolo	*	*	*	*	*	*	*	*	*	*	*	*	*	*	*	*	*	*	*	*	*	*
8D\L	.	.	4.a/	.	4.ff#\	.	0r	.	.	0r	.	.	4.a\	e-	.	4.ff#\	e-	.	0r	.	0r	.
8D\	.	.	.	.	.	.	.	.	.	.	.	.	.	.	.	.	.	.	.	.	.	.
8D\	.	.	.	.	.	.	.	.	.	.	.	.	.	.	.	.	.	.	.	.	.	.
8D\J	.	.	8f#/	.	8dd\	.	.	.	.	.	.	.	8f#\	-rat	.	8dd\	-rat	.	.	.	.	.
!	!	!	!	!	!	!	!	!	!	!	!	!	!	!	!	!LO:LB:g=original	!	!	!	!	!	!
=86	=86	=86	=86	=86	=86	=86	=86-	=86	=86	=86-	=86	=86	=86	=86	=86	=86	=86	=86	=86-	=86	=86-	=86
8G\L	6 x	.	4.b/	.	4.gg\	.	.	.	.	.	.	.	4.b\	in	.	4.gg\	in	.	.	.	.	.
8G\	.	.	.	.	.	.	.	.	.	.	.	.	.	.	.	.	.	.	.	.	.	.
8G\	.	.	.	.	.	.	.	.	.	.	.	.	.	.	.	.	.	.	.	.	.	.
8G\J	.	.	8g/	.	8ee\	.	.	.	.	.	.	.	8g\	prin-	.	8ee\	prin-	.	.	.	.	.
=87	=87	=87	=87	=87	=87	=87	=87-	=87	=87	=87-	=87	=87	=87	=87	=87	=87	=87	=87	=87-	=87	=87-	=87
8A\L	.	.	8f#/L	.	8dd\L	.	.	.	.	.	.	.	8f#\	-ci-	.	8dd\	-ci-	.	.	.	.	.
8A\	.	.	8e/J	.	8cc#\J	.	.	.	.	.	.	.	8e\	-pi-	.	8cc#\	-pi-	.	.	.	.	.
8A\	.	.	4e/	.	4cc#\	.	.	.	.	.	.	.	4e\	-o	.	4cc#\	-o	.	.	.	.	.
8A\J	.	.	.	.	.	.	.	.	.	.	.	.	.	.	.	.	.	.	.	.	.	.
!	!	!	!	!	!LO:LB:g=original	!	!	!	!	!	!	!	!	!	!	!	!	!	!	!	!	!
=88	=88	=88	=88	=88	=88	=88	=88-	=88	=88	=88-	=88	=88	=88	=88	=88	=88	=88	=88	=88-	=88	=88-	=88
8D\L	.	.	4.f#/	.	4.dd\	.	.	.	.	.	.	.	(>4.f#\	et	.	(>4.dd\	et	.	.	.	.	.
8D\	.	.	.	.	.	.	.	.	.	.	.	.	.	.	.	.	.	.	.	.	.	.
8D\	.	.	.	.	.	.	.	.	.	.	.	.	.	.	.	.	.	.	.	.	.	.
8D\J	.	.	16g/LL	.	16ee\LL	.	.	.	.	.	.	.	16g\LL)	.	.	16ee\LL)	.	.	.	.	.	.
.	.	.	16f#/JJ	.	16dd\JJ	.	.	.	.	.	.	.	16f#\JJ	.	.	16dd\JJ	.	.	.	.	.	.
=89	=89	=89	=89	=89	=89	=89	=89-	=89	=89	=89-	=89	=89	=89	=89	=89	=89	=89	=89	=89-	=89	=89-	=89
8AA/L	.	.	4.e/	.	4.cc#\	.	1r	.	.	1r	.	.	4.e\	nunc	.	4.cc#\	nunc	.	1r	.	1r	.
8AA/	.	.	.	.	.	.	.	.	.	.	.	.	.	.	.	.	.	.	.	.	.	.
8AA/	.	.	.	.	.	.	.	.	.	.	.	.	.	.	.	.	.	.	.	.	.	.
8AA/J	.	.	16f#/LL	.	16dd\LL	.	.	.	.	.	.	.	16f#\LL	et	.	16dd\LL	et	.	.	.	.	.
.	.	.	16g/JJ	.	16ee\JJ	.	.	.	.	.	.	.	16g\JJ	.	.	16ee\JJ	.	.	.	.	.	.
=90	=90	=90	=90	=90	=90	=90	=90-	=90	=90	=90-	=90	=90	=90	=90	=90	=90	=90	=90	=90-	=90	=90-	=90
8D\L	.	.	4a/	.	4ff#\	.	.	.	.	.	.	.	4a\	Sem-	.	4ff#\	nunc	.	.	.	.	.
8D\	.	.	.	.	.	.	.	.	.	.	.	.	.	.	.	.	.	.	.	.	.	.
8D\	.	.	8g/L	.	8ee\L	.	.	.	.	.	.	.	8g\L	.	.	8ee\L	et	.	.	.	.	.
8D\J	.	.	8f#/J	.	8dd\J	.	.	.	.	.	.	.	8f#\J	.	.	8dd\J	.	.	.	.	.	.
*Xtremolo	*	*	*	*	*	*	*	*	*	*	*	*	*	*	*	*	*	*	*	*	*	*
!	!	!	!	!	!	!	!	!	!	!	!	!	!LO:LB:g=original	!	!	!	!	!	!	!	!	!
=91	=91	=91	=91	=91	=91	=91	=91-	=91	=91	=91-	=91	=91	=91	=91	=91	=91	=91	=91	=91-	=91	=91-	=91
!LO:TX:t=P:problem=mixed beam	!	!	!	!	!	!	!	!	!	!	!	!	!	!	!	!	!	!	!	!	!	!
8A\L	x 4	.	8.f#/L	.	8.dd\L	.	2r	.	.	2r	.	.	4f#\	.	.	4cc#\	Sem-	.	2r	.	2r	.
8A\	.	.	.	.	.	.	.	.	.	.	.	.	.	.	.	.	.	.	.	.	.	.
.	.	.	32e/LL	.	32ee\LL	.	.	.	.	.	.	.	.	.	.	.	.	.	.	.	.	.
.	.	.	32f#/JJJ	.	32dd\JJJ	.	.	.	.	.	.	.	.	.	.	.	.	.	.	.	.	.
8AA/	x 3	.	8e/L	.	8cc#\L	.	.	.	.	.	.	.	4e\	-per	.	4cc#\	-per	.	.	.	.	.
8AA/J	.	.	8c#/J	.	8a\J	.	.	.	.	.	.	.	.	.	.	.	.	.	.	.	.	.
=92	=92	=92	=92	=92	=92	=92	=92	=92	=92	=92	=92	=92	=92	=92	=92	=92	=92	=92	=92	=92	=92	=92
*	*	*	*^	*	*	*	*	*	*	*	*	*	*	*	*	*	*	*	*	*	*	*
*	*	*	*Xtremolo	*Xtremolo	*	*	*	*	*	*	*	*	*	*	*	*	*	*	*	*	*	*	*
!LO:TX:a:i:t=tutti	!	!	!	!	!LO:DY:a:rj:t=for	!	!LO:DY:a:t=for	!	!	!	!	!	!	!	!	!	!	!	!	!	!	!	!
8D\L	.	.	16a/LL	16f#\LL	f	4.dd\	f	4D\	Si-	.	4A\	Si-	.	4f#\	Si-	.	4dd\	Si-	.	2dd\	.	2ff#\	.
.	.	.	16a/	16f#\	.	.	.	.	.	.	.	.	.	.	.	.	.	.	.	.	.	.	.
8D\	.	.	16a/	16f#\	.	.	.	.	.	.	.	.	.	.	.	.	.	.	.	.	.	.	.
.	.	.	16a/JJ	16f#\JJ	.	.	.	.	.	.	.	.	.	.	.	.	.	.	.	.	.	.	.
*	*	*	*tremolo	*tremolo	*	*	*	*	*	*	*	*	*	*	*	*	*	*	*	*	*	*	*
8D\	.	.	16a/LL	16f#\LL	.	.	.	4D\	-cut	.	4A\	-cut	.	4f#\	-cut	.	4dd\	-cut	.	.	.	.	.
.	.	.	16a/	16f#\	.	.	.	.	.	.	.	.	.	.	.	.	.	.	.	.	.	.	.
8D\J	.	.	16a/	16f#\	.	8ee\	.	.	.	.	.	.	.	.	.	.	.	.	.	.	.	.	.
.	.	.	16a/JJ	16f#\JJ	.	.	.	.	.	.	.	.	.	.	.	.	.	.	.	.	.	.	.
!LO:LB:g=original	!	!	!LO:PB:g=original	!LO:PB:g=original	!	!	!	!	!	!	!	!	!	!	!	!	!	!	!	!	!	!	!
=93	=93	=93	=93	=93	=93	=93	=93	=93	=93	=93	=93	=93	=93	=93	=93	=93	=93	=93	=93	=93	=93	=93	=93
*tremolo	*	*	*	*	*	*	*	*	*	*	*	*	*	*	*	*	*	*	*	*	*	*	*
8D\L	.	.	16a/LL	16f#\LL	.	4.ff#\	.	4D\	e-	.	4A\	e-	.	4f#\	e-	.	4dd\	e-	.	2dd\	.	2ff#\	.
.	.	.	16a/	16f#\	.	.	.	.	.	.	.	.	.	.	.	.	.	.	.	.	.	.	.
8D\	.	.	16a/	16f#\	.	.	.	.	.	.	.	.	.	.	.	.	.	.	.	.	.	.	.
.	.	.	16a/JJ	16f#\JJ	.	.	.	.	.	.	.	.	.	.	.	.	.	.	.	.	.	.	.
8D\	.	.	16a/LL	16f#\LL	.	.	.	4D\	-rat	.	4A\	-rat	.	4f#\	-rat	.	4dd\	-rat	.	.	.	.	.
.	.	.	16a/	16f#\	.	.	.	.	.	.	.	.	.	.	.	.	.	.	.	.	.	.	.
8D\J	.	.	16a/	16f#\	.	8dd\	.	.	.	.	.	.	.	.	.	.	.	.	.	.	.	.	.
.	.	.	16a/JJ	16f#\JJ	.	.	.	.	.	.	.	.	.	.	.	.	.	.	.	.	.	.	.
*	*	*	*v	*v	*	*	*	*	*	*	*	*	*	*	*	*	*	*	*	*	*	*	*
!	!	!	!	!	!	!	!	!	!	!LO:LB:g=original	!	!	!	!	!	!	!	!	!	!	!	!
=94	=94	=94	=94	=94	=94	=94	=94	=94	=94	=94	=94	=94	=94	=94	=94	=94	=94	=94	=94	=94	=94	=94
8G\L	6 x	.	16b\LL	.	8ee\L	.	4G\	in	.	4B\	in	.	4g\	in	.	4ee\	in	.	2ee\	.	2gg\	.
.	.	.	16b\	.	.	.	.	.	.	.	.	.	.	.	.	.	.	.	.	.	.	.
8G\	.	.	16b\	.	8ff#\	.	.	.	.	.	.	.	.	.	.	.	.	.	.	.	.	.
.	.	.	16b\JJ	.	.	.	.	.	.	.	.	.	.	.	.	.	.	.	.	.	.	.
8G\	.	.	16b\LL	.	8gg\	.	4G\	prin-	.	4B\	prin-	.	4g\	prin-	.	4ee\	prin-	.	.	.	.	.
.	.	.	16b\	.	.	.	.	.	.	.	.	.	.	.	.	.	.	.	.	.	.	.
8G\J	.	.	16b\	.	8ee\J	.	.	.	.	.	.	.	.	.	.	.	.	.	.	.	.	.
.	.	.	16b\JJ	.	.	.	.	.	.	.	.	.	.	.	.	.	.	.	.	.	.	.
!	!	!	!	!	!	!	!	!	!	!	!	!	!	!	!	!LO:LB:g=original	!	!	!	!	!	!
=95	=95	=95	=95	=95	=95	=95	=95	=95	=95	=95	=95	=95	=95	=95	=95	=95	=95	=95	=95	=95	=95	=95
8A\L	.	.	16e/LL	.	8dd\L	.	4A\	-ci-	.	4A\	-ci-	.	4e\	-ci-	.	4cc#\	-ci-	.	2a/	.	2ee\	.
.	.	.	16e/	.	.	.	.	.	.	.	.	.	.	.	.	.	.	.	.	.	.	.
8A\	.	.	16e/	.	8cc#\J	.	.	.	.	.	.	.	.	.	.	.	.	.	.	.	.	.
.	.	.	16e/JJ	.	.	.	.	.	.	.	.	.	.	.	.	.	.	.	.	.	.	.
8A\	.	.	16e/LL	.	4cc#\	.	4A\	-pi-	.	4A\	-pi-	.	4e\	-pi-	.	4cc#\	-pi-	.	.	.	.	.
.	.	.	16e/	.	.	.	.	.	.	.	.	.	.	.	.	.	.	.	.	.	.	.
8A\J	.	.	16e/	.	.	.	.	.	.	.	.	.	.	.	.	.	.	.	.	.	.	.
.	.	.	16e/JJ	.	.	.	.	.	.	.	.	.	.	.	.	.	.	.	.	.	.	.
*	*	*	*Xtremolo	*	*	*	*	*	*	*	*	*	*	*	*	*	*	*	*	*	*	*
!	!	!	!	!	!	!	!LO:LB:g=original	!	!	!	!	!	!	!	!	!	!	!	!	!	!	!
=96	=96	=96	=96	=96	=96	=96	=96	=96	=96	=96	=96	=96	=96	=96	=96	=96	=96	=96	=96	=96	=96	=96
8D\L	.	.	16f#/LL	.	4.dd\	.	4D\	-o	.	4A\	-o	.	4f#\	-o	.	4dd\	-o	.	2f#/	.	2dd\	.
.	.	.	16f#/	.	.	.	.	.	.	.	.	.	.	.	.	.	.	.	.	.	.	.
8D\	.	.	16f#/	.	.	.	.	.	.	.	.	.	.	.	.	.	.	.	.	.	.	.
.	.	.	16f#/JJ	.	.	.	.	.	.	.	.	.	.	.	.	.	.	.	.	.	.	.
*	*	*	*tremolo	*	*	*	*	*	*	*	*	*	*	*	*	*	*	*	*	*	*	*
8D\	.	.	16f#/LL	.	.	.	4D\	et	.	4A\	et	.	4f#\	et	.	4dd\	et	.	.	.	.	.
.	.	.	16f#/	.	.	.	.	.	.	.	.	.	.	.	.	.	.	.	.	.	.	.
8D\J	.	.	16f#/	.	16cc#\LL	.	.	.	.	.	.	.	.	.	.	.	.	.	.	.	.	.
.	.	.	16f#/JJ	.	16dd\JJ	.	.	.	.	.	.	.	.	.	.	.	.	.	.	.	.	.
*Xtremolo	*	*	*	*	*	*	*	*	*	*	*	*	*	*	*	*	*	*	*	*	*	*
=97	=97	=97	=97	=97	=97	=97	=97	=97	=97	=97	=97	=97	=97	=97	=97	=97	=97	=97	=97	=97	=97	=97
.	.	.	.	.	8qqff#/	.	.	.	.	.	.	.	.	.	.	.	.	.	.	.	.	.
8C#\L	6 5	.	16a/LL	.	8.ee\L	.	4C#\	nunc	.	4A\	nunc	.	4g\	nunc	.	4ee\	nunc	.	4a/	.	4ee\	.
.	.	.	16a/	.	.	.	.	.	.	.	.	.	.	.	.	.	.	.	.	.	.	.
8C#\	.	.	16a/	.	.	.	.	.	.	.	.	.	.	.	.	.	.	.	.	.	.	.
.	.	.	16a/JJ	.	32dd\LL	.	.	.	.	.	.	.	.	.	.	.	.	.	.	.	.	.
.	.	.	.	.	32ee\JJJ	.	.	.	.	.	.	.	.	.	.	.	.	.	.	.	.	.
8D\	.	.	16a/LL	.	8ff#\L	.	4D\	et	.	4A\	et	.	4f#\	et	.	4dd\	et	.	4dd\	.	4ff#\	.
.	.	.	16a/	.	.	.	.	.	.	.	.	.	.	.	.	.	.	.	.	.	.	.
8D\J	.	.	16a/	.	8dd\J	.	.	.	.	.	.	.	.	.	.	.	.	.	.	.	.	.
.	.	.	16a/JJ	.	.	.	.	.	.	.	.	.	.	.	.	.	.	.	.	.	.	.
!	!	!	!	!	!LO:LB:g=original	!	!	!	!	!	!	!	!	!	!	!	!	!	!LO:LB:g=original	!	!	!
=98	=98	=98	=98	=98	=98	=98	=98	=98	=98	=98	=98	=98	=98	=98	=98	=98	=98	=98	=98	=98	=98	=98
!	!	!	!	!	!	!	!LO:MO:mod=(4G	!	!	!	!	!	!LO:MO:mod=(4g	!	!	!LO:MO:mod=(4ee	!	!	!	!	!	!
8G\L	6 x	.	16b/LL	.	8b\L	.	4G\	Sem-	.	(>4B\	Sem-	.	4g\	Sem-	.	4ee\	Sem-	.	4ee\	.	4gg\	.
.	.	.	16b/	.	.	.	.	.	.	.	.	.	.	.	.	.	.	.	.	.	.	.
8G\	.	.	16b/	.	8ee\J	.	.	.	.	.	.	.	.	.	.	.	.	.	.	.	.	.
.	.	.	16b/JJ	.	.	.	.	.	.	.	.	.	.	.	.	.	.	.	.	.	.	.
.	.	.	.	.	16qqdd/	.	.	.	.	.	.	.	.	.	.	.	.	.	.	.	.	.
!	!	!	!	!	!	!	!LO:MO:mod=4A)	!	!	!	!	!	!LO:MO:mod=4e)	!	!	!LO:MO:mod=4cc#)	!	!	!	!	!	!
8A\	.	.	16e/LL	.	8cc#\L	.	4A\	.	.	4A\)	.	.	4e\	.	.	4cc#\	.	.	4a/	.	4ee\	.
.	.	.	16e/	.	.	.	.	.	.	.	.	.	.	.	.	.	.	.	.	.	.	.
8A\J	.	.	16e/	.	16b\L	.	.	.	.	.	.	.	.	.	.	.	.	.	.	.	.	.
.	.	.	16e/JJ	.	16cc#\JJ	.	.	.	.	.	.	.	.	.	.	.	.	.	.	.	.	.
*	*	*	*Xtremolo	*	*	*	*	*	*	*	*	*	*	*	*	*	*	*	*	*	*	*
!	!	!	!	!	!	!	!	!	!	!	!	!	!	!	!	!	!	!	!	!	!LO:LB:g=original	!
=99	=99	=99	=99	=99	=99	=99	=99	=99	=99	=99	=99	=99	=99	=99	=99	=99	=99	=99	=99	=99	=99	=99
8D\L	.	.	4f#/	.	4dd\	.	4D\	-per	.	4A\	-per	.	4f#\	-per	.	4dd\	-per	.	4f#/	.	4dd\	.
8d\	.	.	.	.	.	.	.	.	.	.	.	.	.	.	.	.	.	.	.	.	.	.
8D\J	.	.	8r	.	8r	.	4r	.	.	4r	.	.	4r	.	.	4r	.	.	4r	.	4r	.
8r	.	.	8a/	.	8a/	.	.	.	.	.	.	.	.	.	.	.	.	.	.	.	.	.
=100	=100	=100	=100	=100	=100	=100	=100	=100	=100	=100	=100	=100	=100	=100	=100	=100	=100	=100	=100	=100	=100	=100
!LO:TX:a:i:t=taſto	!	!	!	!LO:DY:a:rj:t=p.	!	!LO:DY:a:rj:t=p.	!	!	!	!LO:TX:a:i:t=Solo	!	!	!LO:TX:a:i:t=Solo	!	!	!	!	!	!	!	!	!
8AA/L	.	.	4.ee\	p	4.gg\	p	0r	.	.	4.e\	et	.	4.g\	et	.	0r	.	.	0r	.	0r	.
8AA/	.	.	.	.	.	.	.	.	.	.	.	.	.	.	.	.	.	.	.	.	.	.
8AA/	.	.	.	.	.	.	.	.	.	.	.	.	.	.	.	.	.	.	.	.	.	.
8AA/J	.	.	8dd\	.	8ff#\	.	.	.	.	8d\	in	.	8f#\	in	.	.	.	.	.	.	.	.
!	!	!	!	!	!	!	!	!	!	!	!	!	!LO:LB:g=original	!	!	!	!	!	!	!	!	!
=101	=101	=101	=101	=101	=101	=101	=101-	=101	=101	=101	=101	=101	=101	=101	=101	=101-	=101	=101	=101-	=101	=101-	=101
*tremolo	*	*	*	*	*	*	*	*	*	*	*	*	*	*	*	*	*	*	*	*	*	*
8AA/L	.	.	4cc#\	.	4ee\	.	.	.	.	4c#\	Sae-	.	4e\	Sae-	.	.	.	.	.	.	.	.
8AA/	.	.	.	.	.	.	.	.	.	.	.	.	.	.	.	.	.	.	.	.	.	.
8AA/	.	.	8cc#\L	.	8ee\L	.	.	.	.	8c#\	-cu-	.	8e\	-cu-	.	.	.	.	.	.	.	.
8AA/J	.	.	8dd\J	.	8ff#\J	.	.	.	.	8d\	-la	.	8f#\	-la	.	.	.	.	.	.	.	.
=102	=102	=102	=102	=102	=102	=102	=102-	=102	=102	=102	=102	=102	=102	=102	=102	=102-	=102	=102	=102-	=102	=102-	=102
8AA/L	.	.	4.ee\	.	4.gg\	.	.	.	.	4.e\	Sae-	.	4.g\	Sae-	.	.	.	.	.	.	.	.
8AA/	.	.	.	.	.	.	.	.	.	.	.	.	.	.	.	.	.	.	.	.	.	.
8AA/	.	.	.	.	.	.	.	.	.	.	.	.	.	.	.	.	.	.	.	.	.	.
8AA/J	.	.	8dd\	.	8ff#\	.	.	.	.	8d\	-cu-	.	8f#\	-cu-	.	.	.	.	.	.	.	.
!	!	!	!LO:LB:g=original	!	!	!	!	!	!	!	!	!	!	!	!	!	!	!	!	!	!	!
=103	=103	=103	=103	=103	=103	=103	=103-	=103	=103	=103	=103	=103	=103	=103	=103	=103-	=103	=103	=103-	=103	=103-	=103
8AA/L	.	.	8dd\L	.	8ff#\L	.	.	.	.	8d\L	-lo-	.	8f#\L	-lo-	.	.	.	.	.	.	.	.
8AA/	.	.	8cc#\J	.	8ee\J	.	.	.	.	8c#\J	.	.	8e\J	.	.	.	.	.	.	.	.	.
8AA/	.	.	4cc#\	.	4ee\	.	.	.	.	4c#\	-rum	.	4e\	-rum	.	.	.	.	.	.	.	.
8AA/J	.	.	.	.	.	.	.	.	.	.	.	.	.	.	.	.	.	.	.	.	.	.
*Xtremolo	*	*	*	*	*	*	*	*	*	*	*	*	*	*	*	*	*	*	*	*	*	*
=104	=104	=104	=104	=104	=104	=104	=104	=104	=104	=104	=104	=104	=104	=104	=104	=104	=104	=104	=104	=104	=104	=104
!LO:TX:t=P:problem=mixed beam	!	!	!	!	!	!	!	!	!LO:DY:a:rj:t=p.	!	!	!	!	!	!	!	!LO:DY:a:rj:t=p.	!LO:DY:a	!	!LO:DY:a	!	!LO:DY:a:rj:t=p.
8A\L	6 3:	.	4.e/	.	4.cc#\	.	4.A\	Sae-	p	4A\	Sae-	.	4e\	Sae-	.	4.cc#\	Sae-	p	2a/	p	2ee\	p
8AA/	.	.	.	.	.	.	.	.	.	.	.	.	.	.	.	.	.	.	.	.	.	.
8A\	.	.	.	.	.	.	.	.	.	4A\	-cu-	.	4e\	-cu-	.	.	.	.	.	.	.	.
8G\J	.	.	16d/LL	.	16b\LL	.	8G\	-cu-	.	.	.	.	.	.	.	8cc#\	-cu-	.	.	.	.	.
.	.	.	16e/JJ	.	16cc#\JJ	.	.	.	.	.	.	.	.	.	.	.	.	.	.	.	.	.
!	!	!	!	!	!	!	!	!	!	!LO:LB:g=original	!	!	!	!	!	!	!	!	!	!	!	!
=105	=105	=105	=105	=105	=105	=105	=105	=105	=105	=105	=105	=105	=105	=105	=105	=105	=105	=105	=105	=105	=105	=105
8G\L	6 x	.	8f#/L	.	8dd\L	.	8F#\L	-lo-	.	4A\	-lo-	.	4f#\	-lo-	.	4dd\	-lo-	.	4dd\	.	4ff#\	.
8D\	.	.	8a/	.	8ff#\	.	8D\J	.	.	.	.	.	.	.	.	.	.	.	.	.	.	.
8E\	6 x	.	8g/	.	8ee\	.	8E\L	-rum	.	8c#\L	-rum	.	8g\L	-rum	.	8cc#\L	-rum	.	8ee\L	.	8gg\L	.
8F#\J	6 x	.	8f#/J	.	8dd\J	.	8F#\J	.	.	8e\J	.	.	8a\J	.	.	8dd\J	.	.	8dd\J	.	8ff#\J	.
!LO:PB:g=original	!	!	!	!	!	!	!	!	!	!	!	!	!	!	!	!	!	!	!	!	!	!
=106	=106	=106	=106	=106	=106	=106	=106	=106	=106	=106	=106	=106	=106	=106	=106	=106	=106	=106	=106	=106	=106	=106
8G\L	4 2	.	8e/L	.	8cc#\L	.	8G\L	a-	.	8e\L	a-	.	2a\	a-	.	8cc#\L	a-	.	8a/L	.	8ee\L	.
8F#\	6 x	.	8a/J	.	8dd\	.	8F#\	.	.	8d\	.	.	.	.	.	8dd\	.	.	8f#/	.	8dd\	.
8E\	6 x	.	8cc#\L	.	8ee\	.	8E\	.	.	8c#\	.	.	.	.	.	8ee\	.	.	8a/	.	8ee\	.
8D\J	.	.	8dd\J	.	8ff#\J	.	8D\J	.	.	8d\J	.	.	.	.	.	8ff#\J	.	.	8dd/J	.	8ff#\J	.
=107	=107	=107	=107	=107	=107	=107	=107	=107	=107	=107	=107	=107	=107	=107	=107	=107	=107	=107	=107	=107	=107	=107
4C#/	6 5	.	4g;>\ 4ee\	.	4a;>\ 4gg\	.	4C#/	-men	.	4e\	-men	.	4a\	-men	.	4gg\	-men	.	4ee\	.	4gg\	.
4r;>	.	.	4r	.	4r	.	4r;>	.	.	4r;>	.	.	4r;>	.	.	4r;>	.	.	4r;>	.	4r;>	.
!	!	!	!	!	!LO:LB:g=original	!	!	!	!	!	!	!	!	!	!	!	!	!	!	!	!	!
=108	=108	=108	=108	=108	=108	=108	=108	=108	=108	=108	=108	=108	=108	=108	=108	=108	=108	=108	=108	=108	=108	=108
*	*	*	*^	*	*	*	*	*	*	*	*	*	*	*	*	*	*	*	*	*	*	*
*	*	*	*Xtremolo	*Xtremolo	*	*	*	*	*	*	*	*	*	*	*	*	*	*	*	*	*	*	*
!LO:TX:a:i:t=Tutti	!	!	!	!	!LO:DY:a:t=for	!	!	!	!	!	!	!	!LO:DY:a:t=for	!	!	!LO:DY:a:t=for	!	!	!LO:DY:a:t=for	!	!LO:DY:a:t=for	!	!LO:DY:a:t=for
!	!	!LO:MO:null:mod=!LO&colon;DY&colon;ed=brack	!	!	!	!	!LO:MO:null:mod=!LO&colon;DY&colon;ed=brack	!	!	!LO:MO:null:mod=!LO&colon;DY&colon;ed=brack	!	!	!	!	!	!	!	!	!	!	!	!	!
!	!	!	!	!	!	!	!	!	!	!	!	!	!	!	!	!	!	!	!	!	!	!	!
!	!	!LO:MO:null:mod=f	!	!	!	!	!LO:MO:null:mod=f	!	!	!LO:MO:null:mod=f	!	!	!	!	!	!	!	!	!	!	!	!	!
8D\L	.	.	16a/LL	16f#\LL	f	4.dd\	.	4D\	Si-	.	4A\	Si-	f	4f#\	Si-	f	4dd\	Si-	f	2dd\	f	2ff#\	f
.	.	.	16a/	16f#\	.	.	.	.	.	.	.	.	.	.	.	.	.	.	.	.	.	.	.
8D\	.	.	16a/	16f#\	.	.	.	.	.	.	.	.	.	.	.	.	.	.	.	.	.	.	.
.	.	.	16a/JJ	16f#\JJ	.	.	.	.	.	.	.	.	.	.	.	.	.	.	.	.	.	.	.
*	*	*	*tremolo	*tremolo	*	*	*	*	*	*	*	*	*	*	*	*	*	*	*	*	*	*	*
8D\	.	.	16a/LL	16f#\LL	.	.	.	4D\	-cut	.	4A\	-cut	.	4f#\	-cut	.	4dd\	-cut	.	.	.	.	.
.	.	.	16a/	16f#\	.	.	.	.	.	.	.	.	.	.	.	.	.	.	.	.	.	.	.
8D\J	.	.	16a/	16f#\	.	8ee\	.	.	.	.	.	.	.	.	.	.	.	.	.	.	.	.	.
.	.	.	16a/JJ	16f#\JJ	.	.	.	.	.	.	.	.	.	.	.	.	.	.	.	.	.	.	.
!	!	!	!	!	!	!	!	!	!	!	!	!	!	!	!	!	!LO:LB:g=original	!	!	!	!	!	!
=109	=109	=109	=109	=109	=109	=109	=109	=109	=109	=109	=109	=109	=109	=109	=109	=109	=109	=109	=109	=109	=109	=109	=109
*tremolo	*	*	*	*	*	*	*	*	*	*	*	*	*	*	*	*	*	*	*	*	*	*	*
8D\L	.	.	16a/LL	16f#\LL	.	4.ff#\	.	4D\	e-	.	4.A\	e-	.	4f#\	e-	.	4dd\	e-	.	2dd\	.	2ff#\	.
.	.	.	16a/	16f#\	.	.	.	.	.	.	.	.	.	.	.	.	.	.	.	.	.	.	.
8D\	.	.	16a/	16f#\	.	.	.	.	.	.	.	.	.	.	.	.	.	.	.	.	.	.	.
.	.	.	16a/JJ	16f#\JJ	.	.	.	.	.	.	.	.	.	.	.	.	.	.	.	.	.	.	.
8D\	.	.	16a/LL	16f#\LL	.	.	.	4D\	-rat	.	.	.	.	4f#\	-rat	.	4dd\	-rat	.	.	.	.	.
.	.	.	16a/	16f#\	.	.	.	.	.	.	.	.	.	.	.	.	.	.	.	.	.	.	.
8D\J	.	.	16a/	16f#\	.	8dd\	.	.	.	.	8A\	-rat	.	.	.	.	.	.	.	.	.	.	.
.	.	.	16a/JJ	16f#\JJ	.	.	.	.	.	.	.	.	.	.	.	.	.	.	.	.	.	.	.
*	*	*	*v	*v	*	*	*	*	*	*	*	*	*	*	*	*	*	*	*	*	*	*	*
!	!	!	!	!	!	!	!LO:LB:g=original	!	!	!	!	!	!LO:LB:g=original	!	!	!	!	!	!	!	!	!
=110	=110	=110	=110	=110	=110	=110	=110	=110	=110	=110	=110	=110	=110	=110	=110	=110	=110	=110	=110	=110	=110	=110
8G\L	6 x	.	16b\LL	.	8ee\L	.	4G\	in	.	4B\	in	.	4g\	in	.	4ee\	in	.	2ee\	.	2gg\	.
.	.	.	16b\	.	.	.	.	.	.	.	.	.	.	.	.	.	.	.	.	.	.	.
8G\	.	.	16b\	.	8ff#\	.	.	.	.	.	.	.	.	.	.	.	.	.	.	.	.	.
.	.	.	16b\JJ	.	.	.	.	.	.	.	.	.	.	.	.	.	.	.	.	.	.	.
8G\	.	.	16b\LL	.	8gg\	.	4G\	prin-	.	4B\	prin-	.	4g\	prin-	.	4ee\	prin-	.	.	.	.	.
.	.	.	16b\	.	.	.	.	.	.	.	.	.	.	.	.	.	.	.	.	.	.	.
8G\J	.	.	16b\	.	8ee\J	.	.	.	.	.	.	.	.	.	.	.	.	.	.	.	.	.
.	.	.	16b\JJ	.	.	.	.	.	.	.	.	.	.	.	.	.	.	.	.	.	.	.
=111	=111	=111	=111	=111	=111	=111	=111	=111	=111	=111	=111	=111	=111	=111	=111	=111	=111	=111	=111	=111	=111	=111
8A\L	.	.	16e/LL	.	8dd\L	.	4A\	-ci-	.	4A\	-ci-	.	4e\	-ci-	.	4cc#\	-ci-	.	2a/	.	2ee\	.
.	.	.	16e/	.	.	.	.	.	.	.	.	.	.	.	.	.	.	.	.	.	.	.
8A\	.	.	16e/	.	8cc#\J	.	.	.	.	.	.	.	.	.	.	.	.	.	.	.	.	.
.	.	.	16e/JJ	.	.	.	.	.	.	.	.	.	.	.	.	.	.	.	.	.	.	.
8A\	.	.	16e/LL	.	4cc#\	.	4A\	-pi-	.	4A\	-pi-	.	4e\	-pi-	.	4cc#\	-pi-	.	.	.	.	.
.	.	.	16e/	.	.	.	.	.	.	.	.	.	.	.	.	.	.	.	.	.	.	.
8A\J	.	.	16e/	.	.	.	.	.	.	.	.	.	.	.	.	.	.	.	.	.	.	.
.	.	.	16e/JJ	.	.	.	.	.	.	.	.	.	.	.	.	.	.	.	.	.	.	.
*	*	*	*Xtremolo	*	*	*	*	*	*	*	*	*	*	*	*	*	*	*	*	*	*	*
=112	=112	=112	=112	=112	=112	=112	=112	=112	=112	=112	=112	=112	=112	=112	=112	=112	=112	=112	=112	=112	=112	=112
8D\L	.	.	16f#/LL	.	4.dd\	.	4D\	-o	.	4A\	-o	.	4f#\	-o	.	4dd\	-o	.	2f#/	.	2dd\	.
.	.	.	16f#/	.	.	.	.	.	.	.	.	.	.	.	.	.	.	.	.	.	.	.
8D\	.	.	16f#/	.	.	.	.	.	.	.	.	.	.	.	.	.	.	.	.	.	.	.
.	.	.	16f#/JJ	.	.	.	.	.	.	.	.	.	.	.	.	.	.	.	.	.	.	.
*	*	*	*tremolo	*	*	*	*	*	*	*	*	*	*	*	*	*	*	*	*	*	*	*
8D\	.	.	16f#/LL	.	.	.	4D\	et	.	4A\	et	.	4f#\	et	.	4dd\	et	.	.	.	.	.
.	.	.	16f#/	.	.	.	.	.	.	.	.	.	.	.	.	.	.	.	.	.	.	.
8D\J	.	.	16f#/	.	16cc#\LL	.	.	.	.	.	.	.	.	.	.	.	.	.	.	.	.	.
.	.	.	16f#/JJ	.	16dd\JJ	.	.	.	.	.	.	.	.	.	.	.	.	.	.	.	.	.
*Xtremolo	*	*	*	*	*	*	*	*	*	*	*	*	*	*	*	*	*	*	*	*	*	*
!	!	!	!LO:LB:g=original	!	!	!	!	!	!	!	!	!	!	!	!	!	!	!	!	!	!	!
=113	=113	=113	=113	=113	=113	=113	=113	=113	=113	=113	=113	=113	=113	=113	=113	=113	=113	=113	=113	=113	=113	=113
8C#\L	6 5	.	16a/LL	.	8.ee\L	.	4C#\	nunc	.	4A\	nun	.	4g\	nunc	.	4ee\	nunc	.	4a/	.	4ee\	.
.	.	.	16a/	.	.	.	.	.	.	.	.	.	.	.	.	.	.	.	.	.	.	.
8C#\	.	.	16a/	.	.	.	.	.	.	.	.	.	.	.	.	.	.	.	.	.	.	.
.	.	.	16a/JJ	.	32dd\LL	.	.	.	.	.	.	.	.	.	.	.	.	.	.	.	.	.
.	.	.	.	.	32ee\JJJ	.	.	.	.	.	.	.	.	.	.	.	.	.	.	.	.	.
8D\	.	.	16a/LL	.	8ff#\L	.	4D\	et	.	4A\	et	.	4f#\	et	.	4dd\	et	.	4dd\	.	4ff#\	.
.	.	.	16a/	.	.	.	.	.	.	.	.	.	.	.	.	.	.	.	.	.	.	.
8D\J	.	.	16a/	.	8dd\J	.	.	.	.	.	.	.	.	.	.	.	.	.	.	.	.	.
.	.	.	16a/JJ	.	.	.	.	.	.	.	.	.	.	.	.	.	.	.	.	.	.	.
=114	=114	=114	=114	=114	=114	=114	=114	=114	=114	=114	=114	=114	=114	=114	=114	=114	=114	=114	=114	=114	=114	=114
!	!	!	!	!	!	!	!LO:MO:mod=(4G	!	!	!	!	!	!LO:MO:mod=(4g	!	!	!	!	!	!	!	!	!
8G\L	6: x	.	16b/LL	.	8b\L	.	4G\	Sem-	.	(>4B\	Sem-	.	4g\	Sem-	.	(>4ee\	Sem-	.	4ee\	.	4gg\	.
.	.	.	16b/	.	.	.	.	.	.	.	.	.	.	.	.	.	.	.	.	.	.	.
8G\	.	.	16b/	.	8ee\J	.	.	.	.	.	.	.	.	.	.	.	.	.	.	.	.	.
.	.	.	16b/JJ	.	.	.	.	.	.	.	.	.	.	.	.	.	.	.	.	.	.	.
.	.	.	.	.	16qqdd/	.	.	.	.	.	.	.	.	.	.	.	.	.	.	.	.	.
!	!	!	!	!	!	!	!LO:MO:mod=4A)	!	!	!	!	!	!LO:MO:mod=4e)	!	!	!	!	!	!	!	!	!
8A\	.	.	16e/LL	.	8cc#\L	.	4A\	.	.	4A\)	.	.	4e\	.	.	4cc#\)	.	.	4a/	.	4ee\	.
.	.	.	16e/	.	.	.	.	.	.	.	.	.	.	.	.	.	.	.	.	.	.	.
8A\J	.	.	16e/	.	16b\L	.	.	.	.	.	.	.	.	.	.	.	.	.	.	.	.	.
.	.	.	16e/JJ	.	16cc#\JJ	.	.	.	.	.	.	.	.	.	.	.	.	.	.	.	.	.
=115	=115	=115	=115	=115	=115	=115	=115	=115	=115	=115	=115	=115	=115	=115	=115	=115	=115	=115	=115	=115	=115	=115
*	*	*	*^	*	*	*	*	*	*	*	*	*	*	*	*	*	*	*	*	*	*	*
*tremolo	*	*	*	*	*	*	*	*	*	*	*	*	*	*	*	*	*	*	*	*	*	*	*
8D\L	.	.	16a/LL	16f#\LL	.	8dd\L	.	4D\	-per	.	4A\	-per	.	4f#\	-per	.	4dd\	-per	.	4f#/	.	4dd\	.
.	.	.	16a/	16f#\	.	.	.	.	.	.	.	.	.	.	.	.	.	.	.	.	.	.	.
8D\	.	.	16a/	16f#\	.	16dd\L	.	.	.	.	.	.	.	.	.	.	.	.	.	.	.	.	.
.	.	.	16a/JJ	16f#\JJ	.	16ff#\JJ	.	.	.	.	.	.	.	.	.	.	.	.	.	.	.	.	.
8D\	.	.	16a/LL	16f#\LL	.	8aa\L	.	8D\	et	.	8A\	et	.	8f#\	et	.	8dd\	et	.	4r	.	4r	.
.	.	.	16a/	16f#\	.	.	.	.	.	.	.	.	.	.	.	.	.	.	.	.	.	.	.
8D\J	.	.	16a/	16f#\	.	8aa\J	.	8D\	in	.	8A\	in	.	8f#\	in	.	8dd\	in	.	.	.	.	.
.	.	.	16a/JJ	16f#\JJ	.	.	.	.	.	.	.	.	.	.	.	.	.	.	.	.	.	.	.
!	!	!	!	!	!	!	!	!	!	!	!LO:LB:g=original	!	!	!	!	!	!	!	!	!LO:LB:g=original	!	!	!
=116	=116	=116	=116	=116	=116	=116	=116	=116	=116	=116	=116	=116	=116	=116	=116	=116	=116	=116	=116	=116	=116	=116	=116
8D\L	.	.	16a/LL	16f#\LL	.	4.aa\	.	4d\	Sae-	.	4A\	Sae-	.	4f#\	Sae-	.	4dd\	Sae-	.	4f#/	.	4dd\	.
.	.	.	16a/	16f#\	.	.	.	.	.	.	.	.	.	.	.	.	.	.	.	.	.	.	.
8D\	.	.	16a/	16f#\	.	.	.	.	.	.	.	.	.	.	.	.	.	.	.	.	.	.	.
.	.	.	16a/JJ	16f#\JJ	.	.	.	.	.	.	.	.	.	.	.	.	.	.	.	.	.	.	.
8D\	.	.	16a/LL	16f#\LL	.	.	.	4d\	-cu-	.	4A\	-cu-	.	4f#\	-cu-	.	4dd\	-cu-	.	8f#/L	.	8dd\L	.
.	.	.	16a/	16f#\	.	.	.	.	.	.	.	.	.	.	.	.	.	.	.	.	.	.	.
8D\J	.	.	16a/	16f#\	.	16gg\LL	.	.	.	.	.	.	.	.	.	.	.	.	.	8f#/J	.	8dd\J	.
.	.	.	16a/JJ	16f#\JJ	.	16ff#\JJ	.	.	.	.	.	.	.	.	.	.	.	.	.	.	.	.	.
*Xtremolo	*	*	*	*	*	*	*	*	*	*	*	*	*	*	*	*	*	*	*	*	*	*	*
!	!	!	!	!	!	!LO:PB:g=original	!	!	!	!	!	!	!	!	!	!	!	!	!	!	!	!LO:LB:g=original	!
=117	=117	=117	=117	=117	=117	=117	=117	=117	=117	=117	=117	=117	=117	=117	=117	=117	=117	=117	=117	=117	=117	=117	=117
8C#/L	6: 5:	.	16a/LL	16e\LL	.	8ee\L	.	4c#\	-la	.	4A\	-la	.	4g\	-la	.	4ee\	-la	.	4a/	.	4ee\	.
.	.	.	16a/	16e\	.	.	.	.	.	.	.	.	.	.	.	.	.	.	.	.	.	.	.
8C#/	.	.	16a/	16e\	.	16cc#\L	.	.	.	.	.	.	.	.	.	.	.	.	.	.	.	.	.
.	.	.	16a/JJ	16e\JJ	.	16ee\JJ	.	.	.	.	.	.	.	.	.	.	.	.	.	.	.	.	.
*	*	*	*	*	*	*	*	*	*	*	*	*ij	*	*	*	*	*	*	*	*	*	*	*
8C#/	.	.	16a/LL	16e\LL	.	8aa\L	.	8c#\	et	.	8A\	et	.	8g\	et	.	8ee\	et	.	4r	.	4r	.
.	.	.	16a/	16e\	.	.	.	.	.	.	.	.	.	.	.	.	.	.	.	.	.	.	.
8C#/J	.	.	16a/	16e\	.	8aa\J	.	8c#\	in	.	8A\	in	.	8g\	in	.	8ee\	in	.	.	.	.	.
.	.	.	16a/JJ	16e\JJ	.	.	.	.	.	.	.	.	.	.	.	.	.	.	.	.	.	.	.
=118	=118	=118	=118	=118	=118	=118	=118	=118	=118	=118	=118	=118	=118	=118	=118	=118	=118	=118	=118	=118	=118	=118	=118
*tremolo	*	*	*	*	*	*	*	*	*	*	*	*	*	*	*	*	*	*	*	*	*	*	*
8C#/L	.	.	16a/LL	16e\LL	.	4.aa\	.	4c#\	Sae-	.	4A\	sae-	.	4g\	Sae-	.	4ee\	Sae-	.	4a/	.	4ee\	.
.	.	.	16a/	16e\	.	.	.	.	.	.	.	.	.	.	.	.	.	.	.	.	.	.	.
8C#/	.	.	16a/	16e\	.	.	.	.	.	.	.	.	.	.	.	.	.	.	.	.	.	.	.
.	.	.	16a/JJ	16e\JJ	.	.	.	.	.	.	.	.	.	.	.	.	.	.	.	.	.	.	.
8C#/	.	.	16a/LL	16e\LL	.	.	.	4c#\	-cu-	.	4A\	-cu-	.	4g\	-cu-	.	4ee\	-cu-	.	8a/L	.	8ee\L	.
.	.	.	16a/	16e\	.	.	.	.	.	.	.	.	.	.	.	.	.	.	.	.	.	.	.
8C#/J	.	.	16a/	16e\	.	8gg\	.	.	.	.	.	.	.	.	.	.	.	.	.	8a/J	.	8ee\J	.
.	.	.	16a/JJ	16e\JJ	.	.	.	.	.	.	.	.	.	.	.	.	.	.	.	.	.	.	.
!LO:LB:g=original	!	!	!	!	!	!	!	!	!	!	!	!	!	!LO:LB:g=original	!	!	!LO:LB:g=original	!	!	!	!	!	!
=119	=119	=119	=119	=119	=119	=119	=119	=119	=119	=119	=119	=119	=119	=119	=119	=119	=119	=119	=119	=119	=119	=119	=119
8D\L	.	.	16a/LL	16f#\LL	.	8ff#\L	.	4d\	-la	.	4A\	-la	.	4f#\	-la	.	4dd\	-la	.	4dd\	.	4ff#\	.
*	*	*	*	*	*	*	*	*	*	*	*	*Xij	*	*	*Xij	*	*	*Xij	*	*	*	*	*
.	.	.	16a/	16f#\	.	.	.	.	.	.	.	.	.	.	.	.	.	.	.	.	.	.	.
8D\	.	.	16a/	16f#\	.	16dd\L	.	.	.	.	.	.	.	.	.	.	.	.	.	.	.	.	.
.	.	.	16a/JJ	16f#\JJ	.	16ff#\JJ	.	.	.	.	.	.	.	.	.	.	.	.	.	.	.	.	.
8D\	.	.	16a/LL	16f#\LL	.	8aa\L	.	8D\	Sae-	.	8A\	Sae-	.	8f#\	Sae-	.	8dd\	Se-	.	4r	.	4r	.
.	.	.	16a/	16f#\	.	.	.	.	.	.	.	.	.	.	.	.	.	.	.	.	.	.	.
8D\J	.	.	16a/	16f#\	.	8aa\J	.	8D\	-cu-	.	8A\	-cu-	.	8f#\	-cu-	.	8dd\	-cu-	.	.	.	.	.
.	.	.	16a/JJ	16f#\JJ	.	.	.	.	.	.	.	.	.	.	.	.	.	.	.	.	.	.	.
!	!	!	!	!	!	!	!	!LO:LB:g=original	!	!	!	!	!	!	!	!	!	!	!	!	!	!	!
=120	=120	=120	=120	=120	=120	=120	=120	=120	=120	=120	=120	=120	=120	=120	=120	=120	=120	=120	=120	=120	=120	=120	=120
8F#\L	6 x	.	16a/LL	16f#\LL	.	4.aa\	.	4F#\	-lo-	.	4A\	-lo-	.	4f#\	-lo-	.	4dd\	-lo-	.	4dd\	.	4ff#\	.
.	.	.	16a/	16f#\	.	.	.	.	.	.	.	.	.	.	.	.	.	.	.	.	.	.	.
8F#\	.	.	16a/	16f#\	.	.	.	.	.	.	.	.	.	.	.	.	.	.	.	.	.	.	.
.	.	.	16a/JJ	16f#\JJ	.	.	.	.	.	.	.	.	.	.	.	.	.	.	.	.	.	.	.
8F#\	.	.	16a/LL	16f#\LL	.	.	.	4F#\	-rum	.	4A\	-rum	.	4f#\	-rum	.	4dd\	-rum	.	8dd\L	.	8ff#\L	.
.	.	.	16a/	16f#\	.	.	.	.	.	.	.	.	.	.	.	.	.	.	.	.	.	.	.
8F#\J	.	.	16a/	16f#\	.	16ff#\LL	.	.	.	.	.	.	.	.	.	.	.	.	.	8dd\J	.	8ff#\J	.
.	.	.	16a/JJ	16f#\JJ	.	16dd\JJ	.	.	.	.	.	.	.	.	.	.	.	.	.	.	.	.	.
*	*	*	*v	*v	*	*	*	*	*	*	*	*	*	*	*	*	*	*	*	*	*	*	*
=121	=121	=121	=121	=121	=121	=121	=121	=121	=121	=121	=121	=121	=121	=121	=121	=121	=121	=121	=121	=121	=121	=121
*	*	*	*	*	*	*	*	*ij	*	*	*ij	*	*	*ij	*	*	*ij	*	*	*	*	*
!	!	!	!	!	!	!	!	!	!	!	!	!	!	!	!	!	!LO:MO:mod=Sae-	!	!	!	!	!
8G\L	6 x	.	16b\LL	.	16ee\LL	.	4G\	Sae-	.	4B\	Sae-	.	4g\	Sae-	.	4ee\	Se-	.	4ee\	.	4gg\	.
.	.	.	16b\	.	16dd\	.	.	.	.	.	.	.	.	.	.	.	.	.	.	.	.	.
8G\	.	.	16b\	.	16ee\	.	.	.	.	.	.	.	.	.	.	.	.	.	.	.	.	.
.	.	.	16b\JJ	.	16ff#\JJ	.	.	.	.	.	.	.	.	.	.	.	.	.	.	.	.	.
8G\	.	.	16b\LL	.	8gg\L	.	4G\	-cu-	.	4B\	-cu-	.	4g\	-cu-	.	4ee\	-cu-	.	4ee\	.	4gg\	.
.	.	.	16b\	.	.	.	.	.	.	.	.	.	.	.	.	.	.	.	.	.	.	.
8G\J	.	.	16b\	.	8ee\J	.	.	.	.	.	.	.	.	.	.	.	.	.	.	.	.	.
.	.	.	16b\JJ	.	.	.	.	.	.	.	.	.	.	.	.	.	.	.	.	.	.	.
*Xtremolo	*	*	*Xtremolo	*	*	*	*	*	*	*	*	*	*	*	*	*	*	*	*	*	*	*
=122	=122	=122	=122	=122	=122	=122	=122	=122	=122	=122	=122	=122	=122	=122	=122	=122	=122	=122	=122	=122	=122	=122
!LO:TX:t=P:problem=mixed beam	!	!	!LO:TX:t=P:problem=mixed beam	!	!	!	!LO:MO:mod=(4A	!	!	!	!	!	!	!	!	!	!	!	!	!	!	!
8A\L	x 4	.	8f#/L	.	8dd\L	.	4A\	-lo-	.	2A\	-lo-	.	(>4f#\	-lo-	.	(>4dd\	-lo-	.	4dd\	.	4ff#\	.
8A\	.	.	8dd\J	.	8ff#\	.	.	.	.	.	.	.	.	.	.	.	.	.	.	.	.	.
!	!	!	!LO:TX:t=P:problem=mixed beam	!	!	!	!LO:MO:mod=4AA)	!	!	!	!	!	!	!	!	!	!	!	!	!	!	!
8AA/	x 3	.	8e/L	.	8cc#\	.	4AA/	.	.	.	.	.	4e\)	.	.	4cc#\)	.	.	4a/	.	4ee\	.
8AA/J	.	.	8cc#\J	.	8ee\J	.	.	.	.	.	.	.	.	.	.	.	.	.	.	.	.	.
=123	=123	=123	=123	=123	=123	=123	=123	=123	=123	=123	=123	=123	=123	=123	=123	=123	=123	=123	=123	=123	=123	=123
4D\	.	.	16d/LL	.	16ff#\LL	.	4D\	-rum	.	4A\	-rum	.	4f#\	-rum	.	4dd\	-rum	.	4f#/	.	4dd\	.
*	*	*	*	*	*	*	*	*Xij	*	*	*Xij	*	*	*Xij	*	*	*Xij	*	*	*	*	*
.	.	.	16c#/	.	16ee\	.	.	.	.	.	.	.	.	.	.	.	.	.	.	.	.	.
.	.	.	16d/	.	16ff#\	.	.	.	.	.	.	.	.	.	.	.	.	.	.	.	.	.
.	.	.	16e/JJ	.	16gg\JJ	.	.	.	.	.	.	.	.	.	.	.	.	.	.	.	.	.
4r	.	.	8f#/L	.	8aa\L	.	4r	.	.	4r	.	.	4r	.	.	4r	.	.	4r	.	4r	.
.	.	.	8f#/J	.	8aa\J	.	.	.	.	.	.	.	.	.	.	.	.	.	.	.	.	.
!	!	!	!LO:LB:g=original	!	!	!	!	!	!	!	!	!	!	!	!	!	!	!	!	!	!	!
=124	=124	=124	=124	=124	=124	=124	=124	=124	=124	=124	=124	=124	=124	=124	=124	=124	=124	=124	=124	=124	=124	=124
!	!	!LO:MO:null:mod=!LO&colon;DY&colon;ed=brack	!	!	!	!	!	!	!	!	!	!	!	!	!	!	!	!LO:MO:null:mod=!LO&colon;DY&colon;ed=brack	!	!	!	!
!LO:TX:a:i:t=pedale	!	!	!LO:TX:b:t=|:problem	!LO:DY:a:t=p.	!	!LO:DY:a:t=p.	!	!	!LO:DY:a:rj	!	!	!LO:DY:a:t=p.	!	!	!LO:DY:a:rj:t=p.	!	!	!	!	!LO:DY:a:rj:t=p.	!	!LO:DY:a:rj:t=p.
!	!	!LO:MO:null:mod=p	!	!	!	!	!	!	!	!	!	!	!	!	!	!	!	!LO:MO:null:mod=p	!	!	!	!
2AA/	.	.	8e/L	p	8gg\	p	2A\	a-	p	2A\	a-	p	2e\	a-	p	2cc#\	a-	.	2a/	p	2ee\	p
!	!	!	!LO:TX:b:t=|:problem	!	!	!	!	!	!	!	!	!	!	!	!	!	!	!	!	!	!	!
.	.	.	8g/	.	4ee\	.	.	.	.	.	.	.	.	.	.	.	.	.	.	.	.	.
!	!	!	!LO:TX:b:t=|:problem	!	!	!	!	!	!	!	!	!	!	!	!	!	!	!	!	!	!	!
.	.	.	8c#/	.	.	.	.	.	.	.	.	.	.	.	.	.	.	.	.	.	.	.
!	!	!	!LO:TX:b:t=|:problem	!	!	!	!	!	!	!	!	!	!	!	!	!	!	!	!	!	!	!
.	.	.	8e/J	.	8cc#\	.	.	.	.	.	.	.	.	.	.	.	.	.	.	.	.	.
!	!	!	!	!	!LO:LB:g=original	!	!	!	!	!	!	!	!	!	!	!	!	!	!	!	!	!
=125	=125	=125	=125	=125	=125	=125	=125	=125	=125	=125	=125	=125	=125	=125	=125	=125	=125	=125	=125	=125	=125	=125
!	!	!	!LO:TX:b:t=|:problem	!	!	!	!	!	!	!	!	!	!	!	!	!	!	!	!	!	!	!
2DD/	.	.	8f#/L	.	8dd\	.	2D\	-men	.	2B\	-men	.	2f#\	-men	.	2dd\	-men	.	2f#/	.	2dd\	.
!	!	!	!LO:TX:b:t=|:problem	!	!	!	!	!	!	!	!	!	!	!	!	!	!	!	!	!	!	!
.	.	.	8d/	.	4ff#\	.	.	.	.	.	.	.	.	.	.	.	.	.	.	.	.	.
!	!	!	!LO:TX:b:t=|:problem	!	!	!	!	!	!	!	!	!	!	!	!	!	!	!	!	!	!	!
.	.	.	8a/	.	.	.	.	.	.	.	.	.	.	.	.	.	.	.	.	.	.	.
!	!	!	!LO:TX:b:t=|:problem	!	!	!	!	!	!	!	!	!	!	!	!	!	!	!	!	!	!	!
.	.	.	8f#/J	.	8aa\	.	.	.	.	.	.	.	.	.	.	.	.	.	.	.	.	.
=126	=126	=126	=126	=126	=126	=126	=126	=126	=126	=126	=126	=126	=126	=126	=126	=126	=126	=126	=126	=126	=126	=126
*	*	*	*	*	*	*	*	*ij	*	*	*	*	*	*ij	*	*	*ij	*	*	*	*	*
!	!	!	!LO:TX:b:t=|:problem	!	!	!	!	!	!	!	!	!	!	!	!	!	!	!	!	!	!	!
2AA/	.	.	8e/L	.	8gg\	.	2A\	a-	.	2A\	a-	.	2e\	a-	.	2cc#\	a-	.	2a/	.	2ee\	.
!	!	!	!LO:TX:b:t=|:problem	!	!	!	!	!	!	!	!	!	!	!	!	!	!	!	!	!	!	!
.	.	.	8g/	.	4ee\	.	.	.	.	.	.	.	.	.	.	.	.	.	.	.	.	.
!	!	!	!LO:TX:b:t=|:problem	!	!	!	!	!	!	!	!	!	!	!	!	!	!	!	!	!	!	!
.	.	.	8c#/	.	.	.	.	.	.	.	.	.	.	.	.	.	.	.	.	.	.	.
!	!	!	!LO:TX:b:t=|:problem	!	!	!	!	!	!	!	!	!	!	!	!	!	!	!	!	!	!	!
.	.	.	8e/J	.	8cc#\	.	.	.	.	.	.	.	.	.	.	.	.	.	.	.	.	.
!	!	!	!	!	!	!	!	!	!	!LO:LB:g=original	!	!	!	!	!	!	!	!	!	!	!	!
=127	=127	=127	=127	=127	=127	=127	=127	=127	=127	=127	=127	=127	=127	=127	=127	=127	=127	=127	=127	=127	=127	=127
4DD/	.	.	16d/LL	.	16dd\LL	.	4D\	-men	.	4A\	-men	.	4f#\	-men	.	4dd\	-men	.	4f#/	.	4dd\	.
*	*	*	*	*	*	*	*	*Xij	*	*	*	*	*	*	*	*	*	*	*	*	*	*
.	.	.	16c#/	.	16cc#\	.	.	.	.	.	.	.	.	.	.	.	.	.	.	.	.	.
!	!	!	!	!	!	!LO:MO:mod=!LO&colon;HP&colon;b&colon;i&colon;t=cres	!	!	!	!	!	!	!	!	!	!	!	!	!	!	!	!
!	!	!	!	!LO:HP:b:i:t=cres	!	!LO:HP:b:i:t=cres&colon;	!	!	!	!	!	!	!	!	!	!	!	!	!	!	!	!
.	.	.	16d/	<	16dd\	<	.	.	.	.	.	.	.	.	.	.	.	.	.	.	.	.
.	.	.	16e/JJ	.	16ee\JJ	.	.	.	.	.	.	.	.	.	.	.	.	.	.	.	.	.
4r	.	.	16f#/LL	.	16ff#\LL	.	4r	.	.	4r	.	.	4r	.	.	4r	.	.	4r	.	4r	.
.	.	.	16g/	.	16gg\	.	.	.	.	.	.	.	.	.	.	.	.	.	.	.	.	.
.	.	.	16a/	.	16aa\	.	.	.	.	.	.	.	.	.	.	.	.	.	.	.	.	.
.	.	.	16f#/JJ	.	16ff#\JJ	.	.	.	.	.	.	.	.	.	.	.	.	.	.	.	.	.
=128	=128	=128	=128	=128	=128	=128	=128	=128	=128	=128	=128	=128	=128	=128	=128	=128	=128	=128	=128	=128	=128	=128
*	*	*	*^	*	*	*	*	*	*	*	*	*	*	*	*	*	*	*	*	*	*	*
*	*	*	*tremolo	*tremolo	*	*	*	*	*	*	*	*	*	*	*	*	*	*	*	*	*	*	*
!	!	!LO:MO:null:mod=!LO&colon;DY&colon;ed=brack	!	!	!	!	!	!	!	!	!	!	!	!	!	!	!	!	!	!	!	!	!
!LO:TX:a:i:t=Organ pleno	!	!	!	!	!LO:DY:b:rj:t=for	!	!LO:DY:b:t=fortiſsime	!	!	!	!	!	!LO:DY:a:t=for.	!	!	!LO:DY:a:rj:t=for	!	!	!	!	!LO:DY:a:t=for	!	!LO:DY:a:t=for
!	!	!LO:MO:null:mod=f	!	!	!	!	!	!	!	!	!	!	!	!	!	!	!	!	!	!	!	!	!
8AA/L	.	.	16a/LL	16e\LL	f	(>8.gg\L	ff	2A\	a-	.	2c#\	a-	f	2a\	a-	f	2ee\	a-	.	2a/	f	2ee\	f
.	.	.	16a/	16e\	.	.	.	.	.	.	.	.	.	.	.	.	.	.	.	.	.	.	.
8AA/	.	.	16a/	16e\	.	.	.	.	.	.	.	.	.	.	.	.	.	.	.	.	.	.	.
.	.	.	16a/JJ	16e\JJ	.	16ee\Jk)	.	.	.	.	.	.	.	.	.	.	.	.	.	.	.	.	.
8AA/	.	.	16a/LL	16e\LL	.	8r	.	.	.	.	.	.	.	.	.	.	.	.	.	.	.	.	.
.	.	.	16a/	16e\	.	.	.	.	.	.	.	.	.	.	.	.	.	.	.	.	.	.	.
.	.	.	.	.	.	16qqdd/	.	.	.	.	.	.	.	.	.	.	.	.	.	.	.	.	.
!	!	!	!	!	!	!LO:TUP:a:problem=klamra łukowa	!	!	!	!	!	!	!	!	!	!	!	!	!	!	!	!	!
8AA/J	.	.	16a/	16e\	.	24cc#\LL	.	.	.	.	.	.	.	.	.	.	.	.	.	.	.	.	.
.	.	.	.	.	.	24b\	.	.	.	.	.	.	.	.	.	.	.	.	.	.	.	.	.
.	.	.	16a/JJ	16e\JJ	.	.	.	.	.	.	.	.	.	.	.	.	.	.	.	.	.	.	.
.	.	.	.	.	.	24cc#\JJ	.	.	.	.	.	.	.	.	.	.	.	.	.	.	.	.	.
=129	=129	=129	=129	=129	=129	=129	=129	=129	=129	=129	=129	=129	=129	=129	=129	=129	=129	=129	=129	=129	=129	=129	=129
*tremolo	*	*	*	*	*	*	*	*	*	*	*	*	*	*	*	*	*	*	*	*	*	*	*
8D\L	.	.	16a/LL	16f#\LL	.	(>8.dd\L	.	2D\	-men	.	2d\	-men	.	2a\	-men	.	2ff#\	-men	.	2f#/	.	2dd\	.
*	*	*	*	*	*	*	*	*	*	*	*	*	*	*	*Xij	*	*	*	*	*	*	*	*
.	.	.	16a/	16f#\	.	.	.	.	.	.	.	.	.	.	.	.	.	.	.	.	.	.	.
8D\	.	.	16a/	16f#\	.	.	.	.	.	.	.	.	.	.	.	.	.	.	.	.	.	.	.
.	.	.	16a/JJ	16f#\JJ	.	16ff#\Jk)	.	.	.	.	.	.	.	.	.	.	.	.	.	.	.	.	.
8D\	.	.	16a/LL	16f#\LL	.	8r	.	.	.	.	.	.	.	.	.	.	.	.	.	.	.	.	.
.	.	.	16a/	16f#\	.	.	.	.	.	.	.	.	.	.	.	.	.	.	.	.	.	.	.
.	.	.	.	.	.	16qqgg/	.	.	.	.	.	.	.	.	.	.	.	.	.	.	.	.	.
!	!	!	!	!	!	!LO:TUP:a:problem=klamra łukowa	!	!	!	!	!	!	!	!	!	!	!	!	!	!	!	!	!
8D\J	.	.	16a/	16f#\	.	24ff#\LL	.	.	.	.	.	.	.	.	.	.	.	.	.	.	.	.	.
.	.	.	.	.	.	24ee\	.	.	.	.	.	.	.	.	.	.	.	.	.	.	.	.	.
.	.	.	16a/JJ	16f#\JJ	.	.	.	.	.	.	.	.	.	.	.	.	.	.	.	.	.	.	.
.	.	.	.	.	.	24ff#\JJ	.	.	.	.	.	.	.	.	.	.	.	.	.	.	.	.	.
*	*	*	*v	*v	*	*	*	*	*	*	*	*	*	*	*	*	*	*	*	*	*	*	*
!	!	!	!	!	!	!	!	!	!	!	!	!	!	!	!	!	!	!	!LO:LB:g=original	!	!	!
=130	=130	=130	=130	=130	=130	=130	=130	=130	=130	=130	=130	=130	=130	=130	=130	=130	=130	=130	=130	=130	=130	=130
8AA/L	.	.	16e/LL 16cc#	.	(>8.gg\L	.	2A\	a-	.	2c#\	a-	.	2a\	a-	.	2ee\	a-	.	2a/	.	2ee\	.
.	.	.	16e/ 16cc#	.	.	.	.	.	.	.	.	.	.	.	.	.	.	.	.	.	.	.
8AA/	.	.	16e/ 16cc#	.	.	.	.	.	.	.	.	.	.	.	.	.	.	.	.	.	.	.
.	.	.	16e/JJ 16cc#	.	16ee\Jk)	.	.	.	.	.	.	.	.	.	.	.	.	.	.	.	.	.
8AA/	.	.	16e/LL 16cc#	.	8a\L	.	.	.	.	.	.	.	.	.	.	.	.	.	.	.	.	.
.	.	.	16e/ 16cc#	.	.	.	.	.	.	.	.	.	.	.	.	.	.	.	.	.	.	.
!	!	!	!	!	!LO:TUP:a:problwm:klamra łukowa	!	!	!	!	!	!	!	!	!	!	!	!	!	!	!	!	!
8AA/J	.	.	16e/ 16cc#	.	24ccc#\L	.	.	.	.	.	.	.	.	.	.	.	.	.	.	.	.	.
.	.	.	.	.	24bb\	.	.	.	.	.	.	.	.	.	.	.	.	.	.	.	.	.
.	.	.	16e/JJ 16cc#	.	.	.	.	.	.	.	.	.	.	.	.	.	.	.	.	.	.	.
.	.	.	.	.	24ccc#\JJ	.	.	.	.	.	.	.	.	.	.	.	.	.	.	.	.	.
*Xtremolo	*	*	*Xtremolo	*	*	*	*	*	*	*	*	*	*	*	*	*	*	*	*	*	*	*
!	!	!	!	!	!	!	!	!	!	!	!	!	!LO:LB:g=original	!	!	!	!	!	!	!	!	!
=131	=131	=131	=131	=131	=131	=131	=131	=131	=131	=131	=131	=131	=131	=131	=131	=131	=131	=131	=131	=131	=131	=131
4DD/	.	.	4f#/ 4dd/	.	4a\ 4ff#\ 4ddd\	.	4D\	-men	.	4d\	-men	.	4a\	-men	.	4ff#\	-men	.	4f#/	.	4dd\	.
*	*	*	*	*	*	*	*	*	*	*	*	*	*	*	*	*	*Xij	*	*	*	*	*
!	!	!	!	!	!	!	!	!	!	!	!	!	!LO:TX:b:i:t=Laus Deo:mod=	!	!	!	!	!	!	!	!	!
4r	.	.	4r	.	4r	.	4r	.	.	4r	.	.	4r	.	.	4r	.	.	4r	.	4r	.
==	==	==	==	==	==	==	==	==	==	==	==	==	==	==	==	==	==	==	==	==	==	==
*-	*-	*-	*-	*-	*-	*-	*-	*-	*-	*-	*-	*-	*-	*-	*-	*-	*-	*-	*-	*-	*-	*-
!!!system-decoration: [(g1)][(g2)][(g3)]g4
!!!RDF**kern: > = above
!!!RDF**kern: < = below
!!!filter-modern: | autostem -r | tie -s | shed -e "s/TUP/tup/L; s/^(X)?tuplet/$1TUPLET/I" | shed -k -e "s/([^a-gA-Gn#X-])[<>]/$1/g" | shed -e "s/LO:DY:(a|b|rj)/LO:dy:$1/L" | | shed -k -e “s/([^a-gA-Gn#X-])[<>]/$1/g”  |  shed -e "s/-//B" | shed -e "s/TX(.*):t=P:/tx$1:t=P:/LG" | shed -e "s/^(\d+[\/\\]right)/$1yy/I; s/^(\d+[\/\\]left)/$1yy/I" | modori -m
!!!ENC: Mateusz Solarz
!!!END: 2021-11-26
!!!EED: Jędrzej Mróz
!!!EEV: 2021-12-13
!!!ENC-modern: Leszek Kubiak
!!!END-modern: 2022-07-28
!!!YEC: Copyright 2022 Narodowy Instytut Fryderyka Chopina (https://polishscores.org)
!!!YEM: License CC-BY-4.0 (https://creativecommons.org/licenses/by/4.0)
